jacopotdsc/Residual_Learning_TITA/TITA_MJ/log/sac_logs/saved_weights/old/perturbation_2/experiment_info/observations.csv
epoch,frame,episode_length,mean_length,reward,robot_height,ori_w,ori_x,ori_y,ori_z,grav_x,grav_y,grav_z,lin_vel_x,lin_vel_y,lin_vel_z,ang_vel_x,ang_vel_y,ang_vel_z,joint_angle_1,joint_angle_2,joint_angle_3,joint_angle_4,joint_angle_5,joint_angle_6,joint_angle_7,joint_angle_8,joint_vel_1,joint_vel_2,joint_vel_3,joint_vel_4,joint_vel_5,joint_vel_6,joint_vel_7,joint_vel_8,mpc_sol_com_pos_x,mpc_sol_com_pos_y,mpc_sol_com_pos_z,mpc_sol_com_vel_x,mpc_sol_com_vel_y,mpc_sol_com_vel_z,mpc_sol_com_acc_x,mpc_sol_com_acc_y,mpc_sol_com_acc_z,mpc_sol_pl_pos_x,mpc_sol_pl_pos_y,mpc_sol_pl_pos_z,mpc_sol_pl_vel_x,mpc_sol_pl_vel_y,mpc_sol_pl_vel_z,mpc_sol_pl_acc_x,mpc_sol_pl_acc_y,mpc_sol_pl_acc_z,mpc_sol_pr_pos_x,mpc_sol_pr_pos_y,mpc_sol_pr_pos_z,mpc_sol_pr_vel_x,mpc_sol_pr_vel_y,mpc_sol_pr_vel_z,mpc_sol_pr_acc_x,mpc_sol_pr_acc_y,mpc_sol_pr_acc_z,mpc_sol_theta,mpc_sol_omega,mpc_sol_alpha,prev_action_1,prev_action_2,prev_action_3,prev_action_4,prev_action_5,prev_action_6,prev_action_7,prev_action_8,user_cmd_vx,user_cmd_omega,action_1,action_2,action_3,action_4,action_5,action_6,action_7,action_8
0,0,128,128.0,0.0077090131293182,0.39563823,1.0,0.0,0.0,0.0,0.0,0.0,1.0,0.0,0.0,0.0,0.42456326,-0.0001374402,0.67272717,0.0,0.5,-1.0,0.0,0.0,0.5,-1.0,0.0,0.0,0.0,0.0,0.0,0.0,0.0,0.0,0.0,0.0,0.0,0.0,0.0,0.0,0.0,0.0,0.0,0.0,0.0,0.0,0.0,0.0,0.0,0.0,0.0,0.0,0.0,0.0,0.0,0.0,0.0,0.0,0.0,0.0,0.0,0.0,0.0,0.0,0.0,0.0,0.0,0.0,0.0,0.0,0.0,0.0,0.0,0.0,0.0,-1.0,-0.9998869,0.99999815,-0.72593486,0.9884516,-0.903631,-1.0,-1.0
0,1,128,128.0,0.0072132469289466,0.39566976,0.9999999,0.00011158378,0.00042108426,1.3002261e-05,-0.000841834,0.00022326432,0.99999964,0.0,0.0,0.0,-4.4684744,-1.7628844,29.865389,-0.00021152331,0.4990992,-0.9997117,-0.00076144043,-0.00021353473,0.49946052,-1.0002056,-0.0009157876,-0.2118517,-0.9093667,0.30734068,-0.7732278,-0.21373466,-0.549222,-0.18440522,-0.92872655,0.0046360777,-2.0800768e-07,0.39563823,0.00035075276,-4.1656364e-08,0.010571792,0.17537637,-2.0828182e-05,5.2858963,-2.1908143e-06,0.28349838,-0.0035332136,0.0010059152,3.1983676e-09,0.0,0.5029576,1.5991839e-06,0.0,-3.8800383e-07,-0.28350163,-0.003532836,0.0010059152,3.1983676e-09,0.0,0.5029576,1.5991839e-06,0.0,3.1795598e-06,0.0,0.0,-1.0,-0.9998869,0.99999815,-0.72593486,0.9884516,-0.903631,-1.0,-1.0,0.0,0.0,-1.0,-0.9748719,1.0,-0.850312,-0.99975634,-0.47536296,-1.0,-1.0
0,2,128,128.0,0.0065053175818004,0.39575857,0.99999857,0.00059737504,0.0015624744,6.1689054e-05,-0.003124689,0.0011949075,0.9999944,-0.00903906,-0.0035050167,0.039995838,-2.3400202,2.188123,25.41729,-0.0011682316,0.4965341,-0.998555,-0.0033916621,-0.0011786843,0.49822113,-1.000998,-0.0036849645,-0.74501914,-1.6627508,0.86477786,-1.8664314,-0.7513598,-0.69780904,-0.59120303,-1.8510991,0.0046093552,-1.4676954e-05,0.39573342,-0.008590615,-0.0046767914,0.038580418,0.15611258,0.073981956,3.48353,-0.00014187736,0.28350103,-0.0034330806,-0.04570015,0.0005051751,0.025890017,0.47300208,0.0020691513,-3.4305208,-0.00021621534,-0.28350118,-0.0034231963,-0.068552926,-0.000147476,0.028999,1.741682,0.0031534026,-3.4305208,-0.00013110737,-0.040304676,2.2375307,-1.0,-0.9748719,1.0,-0.850312,-0.99975634,-0.47536296,-1.0,-1.0,0.0,0.0,-1.0,-0.97396636,1.0,0.1706693,-0.97793216,0.9608915,-1.0,-1.0
0,3,128,128.0,0.0048885985484764,0.39588386,0.9999943,0.0016033638,0.002970539,0.0002036585,-0.0059402967,0.0032079064,0.99997723,-0.013902268,0.00091694255,0.07112442,1.8099538,1.6565892,14.20591,-0.0031811225,0.49288255,-0.9964572,-0.0066876886,-0.0032045983,0.4976036,-1.0027634,-0.008675874,-1.2679609,-1.9945968,1.2460794,-1.439114,-1.274719,0.07362265,-1.1600245,-3.149258,0.0045646825,-2.6305272e-05,0.39587262,-0.017567895,-0.0053113173,0.060812686,0.14321133,0.087212615,1.9778739,-0.00041884973,0.28350794,-0.003296132,-0.106297724,0.0020054427,0.04431535,0.82021856,0.007911849,-5.8828845,-0.00059451826,-0.28350076,-0.0032727025,-0.14431685,-7.522557e-05,0.04981198,2.9376233,0.010720216,-5.8828845,-0.0003098186,-0.06705254,3.7343988,-1.0,-0.97396636,1.0,0.1706693,-0.97793216,0.9608915,-1.0,-1.0,0.0,0.0,-1.0,-0.96273047,1.0,-0.27888513,-0.9552774,0.969824,-1.0,-1.0
0,4,128,128.0,0.003595747254263,0.39603332,0.9999857,0.003128995,0.0043107,0.0004783507,-0.008618307,0.00626254,0.99994326,-0.010505881,0.0043748985,0.07980531,2.334553,1.651118,13.57746,-0.00623789,0.48868668,-0.99350554,-0.009908445,-0.006365498,0.49851623,-1.0057484,-0.016260862,-1.7899913,-2.2054203,1.7152308,-1.7881662,-1.887701,0.83537227,-1.8180794,-4.445401,0.0045199767,-4.037203e-05,0.39602047,-0.020565676,-0.0063105514,0.07059647,0.14095426,0.10303622,1.2129772,-0.00052675285,0.28351358,-0.0031309999,-0.07644378,0.0025886823,0.057926938,-2.2413201,0.024301527,-7.7073445,-0.0012049917,-0.2834998,-0.0030905697,-0.23993123,0.0008518534,0.06539212,6.8486853,0.07745895,-7.7073445,-0.0011961753,-0.28833592,16.0317,-1.0,-0.96273047,1.0,-0.27888513,-0.9552774,0.969824,-1.0,-1.0,0.0,0.0,-1.0,-0.9999993,1.0,0.99865735,0.95836055,0.638189,-1.0,-1.0
0,5,128,128.0,0.0025860943733032,0.39619848,0.9999713,0.00496866,0.005656455,0.000890233,-0.011303684,0.00994737,0.99988663,-0.0060061454,0.007917394,0.08724935,-0.81752396,-2.1033587,12.072888,-0.009915109,0.4837322,-0.9900048,-0.011885696,-0.010205659,0.5005362,-1.009486,-0.026390884,-1.8873224,-2.7531667,1.7945597,-0.19635548,-1.95378,1.1821952,-1.9141389,-5.690994,0.004464873,-6.262504e-05,0.39619556,-0.02503182,-0.009250063,0.08170753,0.13821793,0.17499709,0.3304214,-0.000713652,0.28353012,-0.0029509803,-0.093066856,0.0064574075,0.06343744,-3.3860464,0.04285042,-10.361567,-0.001966885,-0.2835898,-0.0028017678,-0.32002005,-0.026279597,0.10234969,9.2308035,0.13831584,-10.361567,-0.0022100068,-0.40019357,22.2517,-1.0,-0.9999993,1.0,0.99865735,0.95836055,0.638189,-1.0,-1.0,0.0,0.0,-0.9999995,-0.9999973,1.0,0.999474,0.35670522,0.90116024,-1.0,-1.0
0,6,128,128.0,0.0020590088148001,0.39636764,0.99995005,0.0069591394,0.0070249806,0.0014621805,-0.014028957,0.0139383,0.99980444,-0.0077497116,0.0039301077,0.09162872,0.12756427,-0.88653266,10.344072,-0.013887163,0.47777617,-0.9862536,-0.01088088,-0.01428631,0.5034132,-1.0134935,-0.038926657,-2.084863,-3.2062037,1.9638197,1.1954329,-2.1277468,1.6929208,-2.0890424,-6.85049,0.0044164592,-9.187593e-05,0.39636666,-0.024280628,-0.012492493,0.08397749,0.14281018,0.23244943,-0.020562287,-0.00056713534,0.28353724,-0.0027569642,0.0033881445,0.0043038507,0.070976764,-8.342731,0.0054668537,-10.7501545,-0.002912246,-0.28363007,-0.00255704,-0.39979652,-0.017049689,0.10102786,14.068966,0.30209953,-10.7501545,-0.004135233,-0.7109855,39.525337,-0.9999995,-0.9999973,1.0,0.999474,0.35670522,0.90116024,-1.0,-1.0,0.0,0.0,-0.9999645,-0.99999994,1.0,0.9999889,0.9999612,-0.8629718,-1.0,-1.0
0,7,128,128.0,0.0015843693763372,0.3965438,0.99991864,0.009043079,0.008733638,0.0021624798,-0.017426677,0.01812246,0.9996839,-0.0075693573,0.002330111,0.09257988,-6.462903,-0.9467116,18.060284,-0.018044477,0.4702119,-0.98215365,-0.0072693,-0.018515864,0.50612205,-1.0174209,-0.053329602,-2.0724452,-4.3608737,2.142037,2.4124494,-2.1023371,1.0151923,-1.8357722,-7.5563445,0.004370337,-0.00012436372,0.3965379,-0.023259709,-0.0145591805,0.08450098,0.1481362,0.2967832,-0.28632626,-0.00023974672,0.28354463,-0.0025576018,0.09014435,0.0031904078,0.075269945,-12.8494005,-0.07094868,-10.920925,-0.0040187533,-0.2836539,-0.0023155096,-0.47441792,-0.0102226,0.09946704,18.535067,0.48329815,-10.920925,-0.0066633048,-0.99558556,55.346893,-0.9999645,-0.99999994,1.0,0.9999889,0.9999612,-0.8629718,-1.0,-1.0,0.0,0.0,-0.9999757,-1.0,1.0,0.99999833,0.9999768,-0.9732543,-1.0,-1.0
0,8,128,128.0,0.001136904121016,0.39673087,0.9998716,0.011111226,0.011160015,0.0029502949,-0.022251599,0.022285346,0.99950397,-0.020565934,0.0006038028,0.10897478,-6.5361505,-0.79517764,17.658518,-0.0221711,0.46034804,-0.9776814,-0.0013395865,-0.022691447,0.50744265,-1.0208297,-0.06903874,-2.0542197,-5.5054393,2.3352363,3.5144167,-2.0735607,0.30506083,-1.5713011,-8.156051,0.0043234667,-0.00015862557,0.39672583,-0.023175068,-0.015800228,0.089314006,0.14799967,0.33694014,-0.8365798,0.0002524893,0.28355336,-0.002357348,0.16999573,0.0028586318,0.07761493,-16.329252,-0.15738675,-10.692424,-0.005165086,-0.28367323,-0.0020921484,-0.509681,-0.0077482685,0.09346599,21.452213,0.5880884,-10.692424,-0.009551882,-1.1985672,66.62334,-0.9999757,-1.0,1.0,0.99999833,0.9999768,-0.9732543,-1.0,-1.0,0.0,0.0,-0.9986006,-1.0,1.0,0.99999994,0.99999875,-0.99107766,-1.0,-1.0
0,9,128,128.0,0.0007271515986145,0.39692724,0.999804,0.013158972,0.014287227,0.0038282606,-0.028468246,0.026422154,0.9992454,-0.033857763,-0.00082251837,0.12451733,-6.274661,-0.7752245,16.690552,-0.026249323,0.44824198,-0.97280914,0.0066975583,-0.026822362,0.5073736,-1.0237136,-0.08587504,-2.0246763,-6.6026793,2.541087,4.5206003,-2.0573735,-0.3740736,-1.3120457,-8.682719,0.0042770375,-0.00019483654,0.39692304,-0.023003083,-0.016841132,0.09332945,0.1466884,0.3608549,-1.3572122,0.0008970199,0.2835661,-0.0021577005,0.24349913,0.0036340652,0.07874883,-19.432991,-0.24250501,-10.358272,-0.0063685137,-0.2836881,-0.0018838276,-0.537375,-0.0064065335,0.08698559,23.971558,0.6617296,-10.358272,-0.012809167,-1.3769649,76.53204,-0.9986006,-1.0,1.0,0.99999994,0.99999875,-0.99107766,-1.0,-1.0,0.0,0.0,-0.980708,-1.0,1.0,1.0,0.9999997,-0.9946345,-1.0,-1.0
0,10,128,128.0,0.0003511793410528,0.39713088,0.9997098,0.015183631,0.01807779,0.00479835,-0.035999432,0.03053169,0.99888533,-0.046783175,-0.0022015746,0.13807237,-5.9736614,-0.76422846,16.21706,-0.030282773,0.4339986,-0.9675235,0.016658995,-0.030904893,0.50597906,-1.026094,-0.10369325,-2.0087729,-7.6427436,2.7486992,5.438953,-2.0254304,-1.0204275,-1.0673205,-9.138017,0.004231355,-0.000232997,0.39712784,-0.02270059,-0.017818104,0.096598886,0.14454615,0.37802765,-1.8421026,0.0016820654,0.28359905,-0.0019546729,0.31133717,0.009720913,0.080528185,-22.227886,-0.31830093,-10.121488,-0.0076196915,-0.28371266,-0.0016865208,-0.5597767,-0.0097458735,0.08141764,26.184242,0.7043721,-10.121488,-0.016397059,-1.5357808,85.352325,-0.980708,-1.0,1.0,1.0,0.9999997,-0.9946345,-1.0,-1.0,0.0,0.0,-0.9307797,-1.0,1.0,1.0,0.9999998,-0.99351513,-1.0,-1.0
0,11,128,128.0,5.246328524034283e-06,0.39733985,0.99958223,0.017179018,0.022492893,0.0058601587,-0.044765744,0.034607016,0.9983979,-0.05925484,-0.0035813574,0.1504988,-5.682736,-0.87277323,15.536281,-0.034278225,0.41773036,-0.9618198,0.028381582,-0.034918513,0.50332665,-1.0279924,-0.12236416,-1.986812,-8.627465,2.9588425,6.2820697,-1.9883541,-1.6318612,-0.83051896,-9.535099,0.0041866866,-0.0002732674,0.3973376,-0.022265332,-0.018831296,0.09879859,0.14222966,0.39136916,-2.2678664,0.002597328,0.28363326,-0.0017570985,0.3741664,0.011487463,0.08010586,-24.764063,-0.3798276,-9.657668,-0.008910357,-0.28372845,-0.0015069947,-0.5779551,-0.008789062,0.07441876,28.146902,0.7165614,-9.657668,-0.020283157,-1.6784047,93.272606,-0.9307797,-1.0,1.0,1.0,0.9999998,-0.99351513,-1.0,-1.0,0.0,0.0,-0.8720237,-0.9999999,1.0,1.0,0.99999994,-0.98915625,-1.0,-1.0
0,12,128,128.0,-0.0003138721942435,0.39755303,0.99941415,0.019136125,0.027494522,0.0070168474,-0.05468843,0.038635455,0.9977557,-0.0712791,-0.00519039,0.16142017,-5.3859563,-1.0515811,15.126247,-0.038228847,0.3995491,-0.95571405,0.041739963,-0.03883718,0.49951163,-1.0294747,-0.14175081,-1.9641316,-9.55584,3.1501474,7.0755405,-1.9308367,-2.1832485,-0.6503915,-9.854418,0.0041432655,-0.00031594775,0.3975511,-0.021708546,-0.019957375,0.100303836,0.1396053,0.40297824,-2.655463,0.0036334079,0.28367624,-0.0015625268,0.432494,0.014645937,0.07958874,-27.064758,-0.4232319,-9.197619,-0.010232583,-0.28374097,-0.0013428519,-0.5923573,-0.00866225,0.06757501,29.881645,0.6980766,-9.197619,-0.024436304,-1.8062814,100.373245,-0.8720237,-0.9999999,1.0,1.0,0.99999994,-0.98915625,-1.0,-1.0,0.0,0.0,-0.81953394,-0.99999976,1.0,1.0,0.99999994,-0.98124796,-1.0,-1.0
0,13,128,128.0,-0.0006105109310109,0.39776918,0.999198,0.021046717,0.033044137,0.0082694385,-0.065687396,0.04260581,0.99693024,-0.08282796,-0.007181777,0.17134063,-5.1292186,-1.1743243,14.316345,-0.042122897,0.37955663,-0.9491974,0.056604877,-0.04264851,0.494609,-1.0305648,-0.16175324,-1.9303743,-10.43849,3.3697603,7.7884693,-1.880379,-2.7188122,-0.44007948,-10.149421,0.004101215,-0.00036102798,0.39776823,-0.021070674,-0.021124568,0.101521425,0.13636777,0.4121392,-3.0291426,0.0047826315,0.2837232,-0.0013677,0.4870176,0.016802955,0.07973323,-29.161913,-0.44682765,-8.941366,-0.011578568,-0.28373647,-0.0011851736,-0.603143,-0.004806636,0.06333041,31.41146,0.64966816,-8.941366,-0.028829591,-1.921166,106.75163,-0.81953394,-0.99999976,1.0,1.0,0.99999994,-0.98124796,-1.0,-1.0,0.0,0.0,-0.76949555,-0.9999995,1.0,1.0,1.0,-0.9618946,-1.0,-1.0
0,14,128,128.0,-0.0008879338267233,0.39798728,0.99892634,0.022904469,0.039102633,0.009618582,-0.07768087,0.046511758,0.99589276,-0.09395164,-0.00943686,0.17949452,-4.83046,-1.4581888,14.116124,-0.045957245,0.3578578,-0.9422697,0.07286668,-0.046340037,0.48870477,-1.0313025,-0.18227625,-1.9044917,-11.262684,3.5615795,8.472587,-1.8118199,-3.1858187,-0.29557565,-10.376543,0.0040608332,-0.00040912165,0.3979863,-0.020305892,-0.022499012,0.10185391,0.13348879,0.42282516,-3.3495934,0.006036342,0.2837875,-0.0011768219,0.53764284,0.022979036,0.07910395,-31.065027,-0.44823533,-8.534786,-0.01294394,-0.28373173,-0.0010428941,-0.6114523,-0.005381276,0.057454348,32.766453,0.57378435,-8.534786,-0.03343845,-2.0243268,112.47827,-0.76949555,-0.9999995,1.0,1.0,1.0,-0.9618946,-1.0,-1.0,0.0,0.0,-0.7618647,-0.9999993,1.0,1.0,1.0,-0.9384664,-1.0,-1.0
0,15,128,128.0,-0.0011459429462974,0.398207,0.9985914,0.024707166,0.045631133,0.011067533,-0.09058704,0.05035458,0.9946147,-0.104549855,-0.012287725,0.18701217,-4.5646887,-1.6704403,13.642875,-0.04974447,0.33455494,-0.9349414,0.090440445,-0.049898025,0.48191082,-1.0317682,-0.20321736,-1.8834287,-12.042607,3.7702773,9.100576,-1.7468425,-3.6086287,-0.16794413,-10.567498,0.0040221745,-0.0004608716,0.39820647,-0.019481236,-0.024159595,0.10222513,0.13010047,0.43616977,-3.673657,0.007389381,0.28385797,-0.0009824772,0.5854235,0.026877576,0.08003954,-32.81916,-0.42891097,-8.406449,-0.01432275,-0.28370798,-0.0009035126,-0.6171205,-0.0015988927,0.054465335,33.971893,0.472246,-8.406449,-0.038244285,-2.1180122,117.677734,-0.7618647,-0.9999993,1.0,1.0,1.0,-0.9384664,-1.0,-1.0,0.0,0.0,-0.7487302,-0.9999987,1.0,1.0,1.0,-0.88664174,-1.0,-1.0
0,16,128,128.0,-0.001381992014232,0.39842752,0.99818623,0.026456358,0.052584346,0.012616461,-0.10431062,0.05414337,0.9930699,-0.11465836,-0.0155892875,0.19339383,-4.223692,-1.8400083,13.134142,-0.053495467,0.3097453,-0.9271779,0.10921781,-0.053330865,0.47432616,-1.0319918,-0.22451761,-1.8682268,-12.770228,3.9984388,9.675366,-1.6865311,-3.9765754,-0.05340517,-10.735565,0.0039854227,-0.0005169429,0.39842737,-0.018574828,-0.026127413,0.10221373,0.12691684,0.4536351,-3.9744644,0.008835092,0.2839407,-0.0007864661,0.63023126,0.032238852,0.08103506,-34.428093,-0.38769594,-8.301516,-0.015711736,-0.2836695,-0.00076949527,-0.6209375,0.0016631269,0.051790845,35.046883,0.3474348,-8.301516,-0.043228805,-2.202959,122.39112,-0.7487302,-0.9999987,1.0,1.0,1.0,-0.88664174,-1.0,-1.0,0.0,0.0,-0.74952567,-0.9999976,1.0,1.0,1.0,-0.78606,-1.0,-1.0
0,17,128,128.0,-0.001589027310431,0.3986479,0.99770504,0.02815609,0.059903145,0.014265668,-0.118728265,0.057891723,0.9912377,-0.12409474,-0.019261211,0.19856505,-3.7487333,-1.8529857,12.59704,-0.057226162,0.28354502,-0.91892624,0.129087,-0.056653645,0.4660798,-1.0319943,-0.2461498,-1.8629917,-13.43437,4.2606363,10.1910515,-1.6365569,-4.270135,0.0528437,-10.899105,0.003950778,-0.0005777456,0.39864817,-0.017573819,-0.028327659,0.10181397,0.12412499,0.4748727,-4.250606,0.010367784,0.28403875,-0.0005892204,0.67229706,0.039112397,0.081896275,-35.914627,-0.32509077,-8.18837,-0.017109418,-0.28361717,-0.00064123166,-0.6237154,0.0043323697,0.049119275,36.024017,0.2025792,-8.18837,-0.04837868,-2.280937,126.71665,-0.74952567,-0.9999976,1.0,1.0,1.0,-0.78606,-1.0,-1.0,0.0,0.0,-0.7703256,-0.9999955,1.0,1.0,1.0,-0.5664203,-1.0,-1.0
0,18,128,128.0,-0.001758647729116,0.39886707,0.9971452,0.029817475,0.06749667,0.01601876,-0.13365296,0.06162676,0.98911023,-0.13255131,-0.022994077,0.2024741,-2.8765666,-1.952327,11.560211,-0.060965203,0.25611973,-0.91010994,0.14992952,-0.059892874,0.45739532,-1.0318233,-0.26812336,-1.8766514,-13.995605,4.5636477,10.648135,-1.6029224,-4.4146433,0.11991087,-11.076778,0.003918557,-0.0006430202,0.39886814,-0.016435329,-0.030518495,0.10107531,0.121720895,0.497166,-4.504267,0.011981812,0.28415632,-0.00039387148,0.711695,0.04785136,0.08181191,-37.30064,-0.24156952,-7.9946613,-0.018516975,-0.28355277,-0.0005202519,-0.6265491,0.006139107,0.046104267,36.94241,0.041273836,-7.9946613,-0.053685002,-2.3538857,130.76228,-0.7703256,-0.9999955,1.0,1.0,1.0,-0.5664203,-1.0,-1.0,0.0,0.0,-0.81087357,-0.9999885,1.0,1.0,1.0,0.057308245,-1.0,-1.0
0,19,128,128.0,-0.0018432064995491,0.39908358,0.99651337,0.03146641,0.07517229,0.01789294,-0.14869474,0.06540328,0.98671794,-0.13917272,-0.026959438,0.20415686,-0.49679852,-2.4322813,9.2059355,-0.06476766,0.22783522,-0.90066636,0.1716472,-0.06305943,0.44891936,-1.0318263,-0.29031935,-1.926891,-14.292404,4.884948,11.068189,-1.56353,-4.0607643,-0.12300094,-11.119412,0.0038891768,-0.0007129333,0.39908528,-0.015109678,-0.03275673,0.09964,0.12040796,0.52314824,-4.7117596,0.013671795,0.28429762,-0.00020468257,0.74848825,0.058568425,0.0801191,-38.624573,-0.13816625,-7.7330737,-0.01994058,-0.2834753,-0.0004048711,-0.63134867,0.007843633,0.043611623,37.872677,-0.13137297,-7.7330737,-0.059148088,-2.4252522,134.72023,-0.81087357,-0.9999885,1.0,1.0,1.0,0.057308245,-1.0,-1.0,0.0,0.0,-0.8797184,-0.9999383,1.0,1.0,1.0,0.8985101,-1.0,-1.0
0,20,128,128.0,-0.0017448523894265,0.3992964,0.9958303,0.033145875,0.08262304,0.019921022,-0.163237,0.069307335,0.98414946,-0.14082289,-0.03191926,0.20112248,2.5680423,-3.1170044,6.2593975,-0.068720445,0.19929953,-0.8905823,0.1941811,-0.06613201,0.44181603,-1.032761,-0.31238806,-2.0275595,-14.245821,5.20158,11.466213,-1.5089438,-3.0423098,-0.81146175,-10.949798,0.0038622576,-0.00078654604,0.39929855,-0.013848659,-0.034690313,0.09768024,0.12030561,0.5540397,-4.882966,0.015433377,0.28446537,-2.3125736e-05,0.7826544,0.07082717,0.07589002,-40.100613,-0.019083742,-8.255946,-0.021415079,-0.28334543,-0.00024560644,-0.6476072,0.021364,0.056206774,39.168213,-0.29251692,-8.255946,-0.06482443,-2.5129173,139.58723,-0.8797184,-0.9999383,1.0,1.0,1.0,0.8985101,-1.0,-1.0,0.0,0.0,-0.90064913,-0.99967617,0.99999994,1.0,1.0,0.9924645,-1.0,-1.0
0,21,128,128.0,-0.00166726959207,0.39949343,0.9951141,0.034890216,0.089672215,0.022124823,-0.17692459,0.07341162,0.98148274,-0.13595706,-0.038287193,0.19233982,2.4846756,-2.9377933,6.1821637,-0.073024504,0.1704647,-0.8789195,0.216993,-0.06910606,0.43678495,-1.0351034,-0.33402345,-2.2684503,-14.560734,6.392946,11.384885,-1.4645481,-1.989727,-1.5241194,-10.680342,0.0038371666,-0.0008630112,0.39950728,-0.012816604,-0.036229502,0.09534507,0.121783406,0.59271896,-5.0270452,0.017261947,0.28465983,0.0001530749,0.81402713,0.08378979,0.069538005,-41.82344,0.11780259,-10.052338,-0.022979064,-0.28311276,1.6239172e-05,-0.6795094,0.052430484,0.09130141,40.992016,-0.43495166,-10.052338,-0.07077939,-2.6249604,145.81435,-0.90064913,-0.99967617,0.99999994,1.0,1.0,0.9924645,-1.0,-1.0,0.0,0.0,-0.75774235,-0.99948627,1.0,1.0,1.0,0.99028724,-1.0,-1.0
0,22,128,128.0,-0.0075996726571756,0.3996691,0.99437124,0.036673993,0.09633289,0.024511775,-0.18979059,0.077646926,0.97874945,-0.13099156,-0.043274414,0.18411073,1.8504685,-2.463577,6.7458863,-0.077714205,0.14103146,-0.86502945,0.23962215,-0.07174356,0.43368775,-1.0385807,-0.3550346,-2.3785675,-14.76646,7.2400246,11.394626,-1.1171582,-1.1396079,-1.8886231,-10.331084,0.0038134286,-0.0009482343,0.3996889,-0.012013025,-0.039463695,0.0864082,0.13438983,0.6716074,-4.7413445,0.019101646,0.28474706,3.366447e-05,0.8272252,0.05760264,-0.021578263,-43.03415,0.31450522,-7.267628,-0.024619244,-0.28278297,0.0003631336,-0.71295786,0.08521969,0.13786177,42.571117,-0.5981847,-7.267628,-0.07690867,-2.713001,150.7142,-0.75774235,-0.99948627,1.0,1.0,1.0,0.99028724,-1.0,-1.0,0.0,0.0,-0.96779037,-0.999777,1.0,1.0,1.0,0.99916536,-1.0,-1.0
0,23,128,128.0,-0.0015333180051542,0.3998441,0.99360657,0.038454346,0.102631144,0.02709465,-0.20186697,0.08197926,0.975976,-0.12645449,-0.05185588,0.17970578,1.8729612,-4.6873574,8.265326,-0.082489856,0.111677594,-0.8506089,0.2629488,-0.073598616,0.43223682,-1.0426755,-0.37534198,-2.4018655,-14.598836,7.202356,11.92546,-0.73736644,-0.31323624,-2.204472,-9.977173,0.0037888768,-0.0010281899,0.3998475,-0.012049807,-0.038411196,0.07656554,0.14567511,0.6958885,-4.370617,0.020988125,0.28481087,-0.0001718364,0.84511334,0.050206527,-0.06805809,-44.84672,0.5189734,-3.443319,-0.02638708,-0.28214282,0.00061475707,-0.7626084,0.18889049,0.12315188,44.97339,-0.73036057,-3.443319,-0.083388716,-2.8459032,158.11237,-0.96779037,-0.999777,1.0,1.0,1.0,0.99916536,-1.0,-1.0,0.0,0.0,-0.99143475,-0.9999296,1.0,1.0,1.0,0.99980086,-1.0,-1.0
0,24,128,128.0,-0.0014823184718819,0.40000483,0.99282235,0.040244397,0.1085901,0.02987189,-0.21321781,0.08639933,0.9731769,-0.1216548,-0.06150263,0.17579235,1.2194431,-4.566499,9.131215,-0.08733106,0.08258945,-0.8361375,0.28715575,-0.07467559,0.4323253,-1.0473467,-0.39471167,-2.4432833,-14.499966,7.288484,12.2755995,-0.3389389,0.39974946,-2.4648538,-9.393518,0.0037627683,-0.0010956697,0.40000856,-0.012523174,-0.034410704,0.07328424,0.14795162,0.6782593,-4.3938565,0.022969814,0.28499016,-0.00014985872,0.8776884,0.08219802,-0.021907493,-47.2027,0.7281039,-4.131982,-0.028288424,-0.28116396,0.0007757158,-0.81611574,0.30528626,0.08802003,47.811695,-0.87229335,-4.131982,-0.09030867,-3.0097332,167.2241,-0.99143475,-0.9999296,1.0,1.0,1.0,0.99980086,-1.0,-1.0,0.0,0.0,-0.9909397,-0.9999324,1.0,1.0,1.0,0.99985266,-1.0,-1.0
0,25,128,128.0,-0.0014414706407953,0.40015796,0.9920196,0.042042315,0.114242055,0.03283721,-0.22390041,0.09091699,0.9703621,-0.11785095,-0.071014434,0.17380384,0.8281678,-4.5565214,9.446106,-0.09227001,0.053641085,-0.82138777,0.31196994,-0.0749425,0.4337858,-1.0525192,-0.41281196,-2.4993255,-14.457973,7.477821,12.5339,0.07273743,1.0586499,-2.7056305,-8.70801,0.0037346538,-0.0011552774,0.40016213,-0.013340856,-0.030440597,0.06973045,0.15288468,0.6769043,-4.389984,0.024994869,0.28522417,-6.564692e-05,0.90079105,0.10971748,0.014899393,-49.151043,0.9994146,-4.0838103,-0.030298484,-0.27986,0.00085909455,-0.8642661,0.42550194,0.050442386,50.32953,-1.0558734,-4.0838103,-0.09754886,-3.1505835,175.05975,-0.9909397,-0.9999324,1.0,1.0,1.0,0.99985266,-1.0,-1.0,0.0,0.0,-0.9919256,-0.99994206,1.0,1.0,1.0,0.99991256,-1.0,-1.0
0,26,128,128.0,-0.0014096093167714,0.40028757,0.9911991,0.043849397,0.11960829,0.03599234,-0.23395234,0.09554609,0.9675419,-0.11457279,-0.08059964,0.17262216,0.4600817,-4.5832534,9.70812,-0.09741169,0.024479743,-0.805619,0.33690596,-0.07438021,0.43652052,-1.0581615,-0.4294514,-2.6474686,-14.714123,8.307243,12.389774,0.49000892,1.6736491,-2.9342384,-7.9328256,0.003704468,-0.0012074503,0.40030718,-0.014290592,-0.026607607,0.06579644,0.16099009,0.69121474,-4.350405,0.027060105,0.2855057,6.659888e-05,0.9197117,0.13442263,0.044172525,-50.921913,1.3186215,-3.6357467,-0.03241627,-0.278228,0.0008707245,-0.90976423,0.5472198,0.014000146,52.73329,-1.2755183,-3.6357467,-0.10511367,-3.2822669,182.3863,-0.9919256,-0.99994206,1.0,1.0,1.0,0.99991256,-1.0,-1.0,0.0,0.0,-0.99249613,-0.9999598,1.0,1.0,1.0,0.99995285,-1.0,-1.0
0,27,128,128.0,-0.0013882485375249,0.40040946,0.99036103,0.045667473,0.124707416,0.03933837,-0.24341714,0.100271784,0.96472466,-0.11193875,-0.08921475,0.1722706,-0.031229204,-3.206956,10.140069,-0.102926895,-0.0054613133,-0.7876192,0.3610566,-0.07296782,0.44044435,-1.064255,-0.44444722,-2.8285503,-15.097734,9.397697,11.970453,0.92656386,2.2470977,-3.1578848,-7.0634418,0.0036724494,-0.0012549848,0.40042934,-0.01517362,-0.023708668,0.05750269,0.17888643,0.73644626,-4.0171947,0.029134639,0.28575104,6.6151304e-05,0.92744607,0.13319193,0.016601717,-52.355232,1.694959,-0.10033725,-0.034638137,-0.2762616,0.0008152329,-0.95287734,0.67108345,-0.014996301,54.957527,-1.5334964,-0.10033725,-0.112970345,-3.3976793,188.81256,-0.99249613,-0.9999598,1.0,1.0,1.0,0.99995285,-1.0,-1.0,0.0,0.0,-0.9944361,-0.9999869,1.0,1.0,1.0,0.9999859,-1.0,-1.0
0,28,128,128.0,-0.0013839065902917,0.4005249,0.98950577,0.047487736,0.12955728,0.04287375,-0.25232437,0.10508907,0.96191925,-0.10978566,-0.09801521,0.17251784,-0.1988235,-5.1391616,10.141288,-0.108612865,-0.03558623,-0.76877487,0.3852638,-0.07064557,0.4454788,-1.0708023,-0.45760486,-2.8632178,-15.042978,9.47598,12.225198,1.3960394,2.784402,-3.386368,-6.0960097,0.0036394382,-0.0012994156,0.40052623,-0.015839884,-0.021396723,0.04789311,0.2032118,0.79907656,-3.5676725,0.031223165,0.28592822,-9.8476514e-05,0.9331491,0.122408696,-0.029823137,-53.735806,2.1090572,4.38725,-0.03696211,-0.2739522,0.00069792656,-0.9938214,0.7979081,-0.040373735,57.181232,-1.829134,4.38725,-0.12114729,-3.5114741,195.15123,-0.9944361,-0.9999869,1.0,1.0,1.0,0.9999859,-1.0,-1.0,0.0,0.0,-0.9812553,-0.999996,1.0,1.0,1.0,0.9999978,-1.0,-1.0
0,29,128,128.0,-0.00136551769809,0.40065378,0.98863375,0.049363106,0.13415562,0.046571366,-0.26063848,0.1101653,0.9591304,-0.108042195,-0.1089463,0.17326756,-0.5248869,-5.2119727,10.266511,-0.11450385,-0.06559316,-0.7496464,0.4098574,-0.06804382,0.4520666,-1.0788895,-0.46896064,-3.079301,-15.130884,10.020615,12.108001,1.2041544,3.8066502,-4.6990542,-5.264478,0.0036019632,-0.0013318959,0.40063316,-0.017471341,-0.016829263,0.046672326,0.21808377,0.8373255,-3.6307554,0.03335678,0.2862392,-9.468941e-06,0.94648737,0.16074899,0.02261414,-55.214317,2.5619843,3.272701,-0.03938704,-0.2712885,0.0005246913,-1.0329596,0.92844576,-0.07497801,59.439144,-2.159041,3.272701,-0.12967458,-3.6295536,201.72737,-0.9812553,-0.999996,1.0,1.0,1.0,0.9999978,-1.0,-1.0,0.0,0.0,-0.96616334,-0.99999654,1.0,1.0,1.0,0.99999857,-1.0,-1.0
0,30,128,128.0,-0.0013594926941138,0.40076947,0.9877455,0.051342394,0.1385002,0.050403003,-0.26841414,0.11542883,0.9563629,-0.106272,-0.114080556,0.16554356,-0.41768757,0.060505576,3.7281868,-0.12098123,-0.096391834,-0.7280894,0.43333298,-0.06573453,0.4606537,-1.0895064,-0.47871396,-3.3315167,-15.552452,11.226656,11.600928,1.2645292,4.660333,-5.6767454,-4.4570136,0.003571342,-0.0013898333,0.4007718,-0.015600094,-0.023698354,0.054613885,0.23977268,1.0071962,-4.2882442,0.035507724,0.2865812,8.156866e-05,0.95773983,0.17894232,0.013937868,-54.648228,2.9849555,-4.892698,-0.041681938,-0.2688752,0.0008577176,-1.0016605,0.8741792,0.064346276,58.54392,-2.7399566,-4.892698,-0.1379936,-3.5855455,199.25737,-0.96616334,-0.99999654,1.0,1.0,1.0,0.99999857,-1.0,-1.0,0.0,0.0,-0.94180954,-0.9999116,1.0,1.0,1.0,0.99999875,-1.0,-1.0
0,31,128,128.0,-0.0073947848009971,0.40089402,0.98683757,0.053331103,0.14264107,0.05441496,-0.27572432,0.12078292,0.95361817,-0.10502935,-0.12063199,0.16022268,-1.2059149,-6.11576,9.707553,-0.1276687,-0.12761983,-0.7053477,0.45656127,-0.06267446,0.4704919,-1.1012013,-0.48679003,-3.3615491,-15.691948,11.546681,11.620836,1.7965931,5.174402,-6.014393,-3.6215093,0.003543471,-0.001459294,0.40089577,-0.014394118,-0.028405512,0.053466935,0.27009267,1.1455346,-4.3912053,0.037660882,0.28682595,-5.756421e-05,0.96288186,0.17133848,-0.041788712,-54.618595,3.4250996,-7.1779227,-0.043976244,-0.2664196,0.0013731039,-0.992088,0.88493633,0.15663691,58.638126,-3.2499785,-7.1779227,-0.14639238,-3.5885909,199.46118,-0.94180954,-0.9999116,1.0,1.0,1.0,0.99999875,-1.0,-1.0,0.0,0.0,-0.8386925,-0.9999734,1.0,1.0,1.0,0.9999931,-1.0,-1.0
0,32,128,128.0,-0.0093201146925416,0.4009957,0.9859201,0.05522471,0.1465544,0.058597043,-0.2824702,0.12600267,0.95096475,-0.104789644,-0.13374245,0.1605727,-1.4692852,-6.295998,9.882987,-0.13448153,-0.15833408,-0.6833978,0.48032123,-0.058398746,0.4813603,-1.1135073,-0.49318817,-3.4982395,-14.829916,10.058406,12.262834,2.5049996,5.6950526,-6.2787766,-2.7727442,0.0035106565,-0.0015097592,0.40101576,-0.0153388735,-0.024667948,0.051796503,0.2917948,1.196616,-4.4516053,0.039877847,0.2872164,4.1268635e-05,0.9810071,0.21531183,0.005282484,-56.02348,3.9307942,-8.93409,-0.046413597,-0.2634556,0.0017130355,-1.0212529,1.0185726,0.13766474,60.782032,-3.6797142,-8.93409,-0.15529615,-3.700804,205.74919,-0.8386925,-0.9999734,1.0,1.0,1.0,0.9999931,-1.0,-1.0,0.0,0.0,-0.6581837,-0.9999605,1.0,1.0,1.0,0.99998504,-1.0,-1.0
0,33,128,128.0,-0.0112348413079923,0.40107685,0.98501956,0.056888197,0.15015493,0.06287868,-0.288659,0.13095886,0.94843334,-0.093032256,-0.14165932,0.14787836,5.5974007,-2.5537338,2.5488129,-0.14174134,-0.187015,-0.6649445,0.5055921,-0.052643113,0.49324253,-1.1262861,-0.49789068,-3.7638104,-13.871282,8.430917,12.992,3.2490594,6.1832585,-6.496704,-1.9323902,0.0034778873,-0.0015555725,0.40109646,-0.015497097,-0.021956583,0.038617708,0.33383146,1.2542566,-3.7628338,0.042151928,0.28739566,0.00033062013,1.0019816,0.15800351,0.07972281,-58.07164,4.457743,-12.386395,-0.048945595,-0.2601301,0.002044808,-1.0515808,1.1515079,0.118462,63.44307,-4.163595,-12.386395,-0.16468577,-3.8502107,214.06923,-0.6581837,-0.9999605,1.0,1.0,1.0,0.99998504,-1.0,-1.0,0.0,0.0,-0.021672431,-0.99977905,1.0,0.99999994,1.0,0.99997896,-1.0,-1.0
0,34,128,128.0,-0.0131920604312377,0.40111023,0.98414177,0.0582792,0.15344194,0.06726149,-0.29417896,0.1353547,0.9461172,-0.0790274,-0.14831841,0.13468955,5.1954303,-4.3281593,2.8029778,-0.14936048,-0.21386431,-0.6495376,0.5322118,-0.045278043,0.50605613,-1.1394334,-0.50093734,-3.8573802,-12.996165,7.0083294,13.61321,4.1147585,6.626252,-6.6466627,-1.1169494,0.0034455403,-0.0016045321,0.40112987,-0.015377042,-0.021774331,0.021031326,0.3938783,1.3454171,-2.745968,0.04448397,0.2871986,0.0006858046,1.0203017,0.04846391,0.12367489,-60.40568,5.0362964,-14.291594,-0.05157459,-0.25644645,0.002375836,-1.0828899,1.2850356,0.10499346,66.41144,-4.7122927,-14.291594,-0.1746467,-4.0182757,223.43544,-0.021672431,-0.99977905,1.0,0.99999994,1.0,0.99997896,-1.0,-1.0,0.0,0.0,0.2691423,-0.9997801,1.0,0.9999999,1.0,0.9999571,-1.0,-1.0
0,35,128,128.0,-0.0151804545849208,0.4011044,0.983294,0.05933707,0.1564089,0.07175143,-0.29907817,0.1391395,0.9440299,-0.06559387,-0.15882353,0.12199182,4.808326,-5.200788,3.1113558,-0.15709375,-0.23905264,-0.63678885,0.5599821,-0.0361292,0.51972187,-1.1528355,-0.50237346,-3.877894,-12.208296,5.769422,14.144086,5.0330625,7.035323,-6.751176,-0.32203552,0.0034131869,-0.001653495,0.40112406,-0.015236756,-0.02157107,0.0035455215,0.46404168,1.4470837,-1.6788123,0.046867,0.2867816,0.001097959,1.0352387,-0.035443716,0.1556964,-62.623608,5.693159,-15.685998,-0.054305363,-0.2523921,0.002714639,-1.1158628,1.4220124,0.095282696,69.457695,-5.323811,-15.685998,-0.18517403,-4.1850557,232.75389,0.2691423,-0.9997801,1.0,0.9999999,1.0,0.9999571,-1.0,-1.0,0.0,0.0,0.43606094,-0.9998012,1.0,0.99999976,1.0,0.9999403,-1.0,-1.0
0,36,128,128.0,-0.0171952514568943,0.4010593,0.98248,0.06003905,0.15905485,0.07635441,-0.30336902,0.14226587,0.94219303,-0.05276426,-0.17136256,0.109867826,4.4484563,-5.747004,3.3767502,-0.16483076,-0.26274884,-0.62635076,0.58873427,-0.025115501,0.5341756,-1.1664078,-0.5022394,-3.8611472,-11.502197,4.6944857,14.596446,5.979756,7.4141116,-6.816518,0.4529879,0.0033808309,-0.0017024593,0.401079,-0.015074306,-0.021356389,-0.013833221,0.54528725,1.5544602,-0.5581268,0.04929914,0.28617102,0.001548103,1.048066,-0.10532115,0.17767222,-64.80724,6.4300156,-16.682514,-0.05714137,-0.24796233,0.003070716,-1.1500907,1.5607309,0.08925135,72.62211,-6.007185,-16.682514,-0.19630271,-4.354696,242.24107,0.43606094,-0.9998012,1.0,0.99999976,1.0,0.9999403,-1.0,-1.0,0.0,0.0,0.52687955,-0.99982494,1.0,0.9999996,1.0,0.99993044,-1.0,-1.0
0,37,128,128.0,-0.0192318365266107,0.400975,0.9817013,0.060377844,0.16138056,0.081075914,-0.30706558,0.14471638,0.940621,-0.040537387,-0.18525925,0.09820078,4.1147194,-6.0928082,3.59165,-0.17251942,-0.28510973,-0.6179138,0.6183215,-0.012194981,0.5493584,-1.1800752,-0.50057524,-3.8295946,-10.87137,3.7653685,14.980437,6.939967,7.7643595,-6.8455577,1.2079427,0.0033484737,-0.0017514246,0.4009947,-0.014885916,-0.021130677,-0.031103298,0.63950294,1.6673522,0.61689067,0.051779393,0.28538588,0.0020210608,1.0592909,-0.165802,0.19133079,-66.990685,7.252877,-17.389341,-0.06008579,-0.24315357,0.0034544016,-1.1853858,1.700571,0.086902164,75.92765,-6.7725005,-17.389341,-0.20807298,-4.5290327,252.00142,0.52687955,-0.99982494,1.0,0.9999996,1.0,0.99993044,-1.0,-1.0,0.0,0.0,0.57197934,-0.9998484,1.0,0.9999994,1.0,0.99992603,-1.0,-1.0
0,38,128,128.0,-0.021285577700953,0.40085143,0.98095834,0.06035533,0.1633879,0.08592096,-0.31018263,0.14649105,0.9393227,-0.028908756,-0.20008323,0.086856455,3.805363,-6.3184056,3.7539487,-0.180144,-0.30627885,-0.6112032,0.64861584,0.002650444,0.5652139,-1.1937654,-0.49742156,-3.7971609,-10.308883,2.9654803,15.304831,7.904688,8.086543,-6.839121,1.9422867,0.0033161165,-0.0018003904,0.40087116,-0.014667368,-0.020895181,-0.048262205,0.74879855,1.7851362,1.8474934,0.054307807,0.28443852,0.0025047066,1.0692863,-0.21990263,0.1981215,-69.198555,8.169402,-17.900164,-0.06314141,-0.23796357,0.0038768777,-1.2216014,1.8411317,0.088284686,79.39346,-7.63125,-17.900164,-0.22053102,-4.709523,262.11713,0.57197934,-0.9998484,1.0,0.9999994,1.0,0.99992603,-1.0,-1.0,0.0,0.0,0.59374774,-0.99987113,1.0,0.9999992,1.0,0.99992454,-1.0,-1.0
0,39,128,128.0,-0.0233520676385162,0.40068862,0.9802498,0.05997843,0.16507912,0.09089403,-0.31273484,0.147599,0.93830246,-0.017873159,-0.21556184,0.075695,3.5188315,-6.483033,3.8619058,-0.18771026,-0.32638547,-0.60597587,0.6795059,0.019425096,0.5816854,-1.207407,-0.49282032,-3.771349,-9.807513,2.2797563,15.577131,8.869173,8.38023,-6.7966113,2.6553538,0.0032837596,-0.0018493566,0.40070838,-0.01441386,-0.020651557,-0.06530681,0.8755734,1.9069862,3.1352458,0.056885246,0.283337,0.0029894907,1.0783284,-0.2695773,0.1992531,-71.44869,9.188908,-18.296085,-0.06631072,-0.23239082,0.0043502073,-1.2586164,1.9821377,0.0934879,83.036095,-8.5966,-18.296085,-0.23372875,-4.8973484,272.6552,0.59374774,-0.99987113,1.0,0.9999992,1.0,0.99992454,-1.0,-1.0,0.0,0.0,0.6081766,-0.9998932,1.0,0.99999905,1.0,0.99992394,-1.0,-1.0
0,40,128,128.0,-0.0254270495395467,0.4004866,0.97957397,0.059256114,0.1664563,0.09599905,-0.314736,0.14805259,0.9375616,-0.0074253445,-0.23154,0.064572096,3.2537582,-6.6293483,3.9136558,-0.19523418,-0.34554434,-0.6020172,0.7108938,0.03812678,0.598715,-1.2209264,-0.4868148,-3.754929,-9.359866,1.6945882,15.803701,9.831652,8.64437,-6.7164884,3.3465092,0.0032514033,-0.0018983228,0.40050635,-0.014119843,-0.02040148,-0.08223348,1.0226027,2.0320616,4.481966,0.059513174,0.28208685,0.0034680448,1.086604,-0.31598386,0.19573042,-73.75241,10.322372,-18.647692,-0.06959591,-0.22643441,0.0048873713,-1.2963305,2.123395,0.102636375,86.8695,-9.683593,-18.647692,-0.24772356,-5.0934315,283.66852,0.6081766,-0.9998932,1.0,0.99999905,1.0,0.99992394,-1.0,-1.0,0.0,0.0,0.61314166,-0.99991137,1.0,0.9999989,1.0,0.99992305,-1.0,-1.0
0,41,128,128.0,-0.027511198354447,0.4002453,0.9789281,0.05819848,0.16752122,0.10123941,-0.31619895,0.1478655,0.93709874,0.002439391,-0.24794778,0.053338654,3.0071228,-6.751597,3.9168835,-0.20273806,-0.3638563,-0.5991387,0.7426941,0.058749072,0.6162424,-1.234247,-0.47944918,-3.7514262,-8.959483,1.1977413,15.990363,10.789667,8.877745,-6.5975986,4.0153666,0.003219048,-0.0019472894,0.4002651,-0.013778875,-0.020146675,-0.09903798,1.193107,2.1595016,5.889775,0.06219341,0.28069264,0.003934845,1.094222,-0.35969952,0.18838422,-76.114845,11.582409,-19.01674,-0.07299895,-0.22009388,0.0055023064,-1.3346577,2.2647562,0.11588743,90.905045,-10.90938,-19.01674,-0.2625779,-5.298457,295.1967,0.61314166,-0.99991137,1.0,0.9999989,1.0,0.99992305,-1.0,-1.0,0.0,0.0,0.6103028,-0.99992436,1.0,0.99999875,1.0,0.9999177,-1.0,-1.0
0,42,128,128.0,-0.0296125903752744,0.3999648,0.9783086,0.056817017,0.16827546,0.106618054,-0.3171356,0.14705332,0.93691,0.011721323,-0.26470292,0.041861102,2.7769194,-6.85337,3.875128,-0.21025088,-0.3814099,-0.59717476,0.7748321,0.08128072,0.6342045,-1.2472903,-0.4707683,-3.763973,-8.600502,0.7782591,16.142305,11.74087,9.078885,-6.4389176,4.661778,0.0031866939,-0.0019962562,0.3999846,-0.013383553,-0.019889321,-0.11571505,1.3907872,2.2882178,7.3613,0.064928286,0.27915746,0.0043859314,1.101306,-0.40129298,0.17789876,-78.54109,12.983182,-19.457138,-0.07652149,-0.21336944,0.0062099034,-1.3735042,2.4060295,0.13341933,95.1539,-12.293706,-19.457138,-0.27835995,-5.513155,307.28143,0.6103028,-0.99992436,1.0,0.99999875,1.0,0.9999177,-1.0,-1.0,0.0,0.0,0.60761184,-0.9999338,1.0,0.99999857,1.0,0.999907,-1.0,-1.0
0,43,128,128.0,-0.0317134790959178,0.39964506,0.9777116,0.055123966,0.16872029,0.112137474,-0.31755692,0.14563218,0.93698925,0.020417932,-0.28172943,0.030013718,2.562564,-6.95511,3.7850845,-0.2178054,-0.398282,-0.5959807,0.8072431,0.10570719,0.65253526,-1.2599753,-0.460817,-3.7932453,-8.277009,0.42636114,16.263868,12.68429,9.246046,-6.2390976,5.285801,0.0031543407,-0.002045223,0.39966485,-0.01292571,-0.019633152,-0.13225925,1.6197274,2.4163413,8.899261,0.0677206,0.27748334,0.0048187035,1.1079724,-0.4412204,0.1648419,-81.03439,14.540592,-20.016674,-0.08016498,-0.20626205,0.007026012,-1.4127731,2.5469906,0.15542886,99.62607,-13.859243,-20.016674,-0.29514396,-5.7382183,319.96228,0.60761184,-0.9999338,1.0,0.99999857,1.0,0.999907,-1.0,-1.0,0.0,0.0,0.6116823,-0.9999408,1.0,0.9999984,1.0,0.9998899,-1.0,-1.0
0,44,128,128.0,-0.0338125698757708,0.39928606,0.9771325,0.05313128,0.16885617,0.11779974,-0.31747216,0.14361683,0.937329,0.028526153,-0.29899153,0.017664757,2.3636487,-7.073982,3.6420004,-0.22543357,-0.41453743,-0.59543014,0.83986974,0.13201305,0.6711648,-1.2722181,-0.44963986,-3.8377392,-7.982958,0.13334022,16.35859,13.620039,9.377333,-5.996552,5.8877177,0.003121989,-0.00209419,0.39930588,-0.012395331,-0.019380549,-0.14866336,1.884934,2.5426822,10.507277,0.07057343,0.27567226,0.0052317376,1.1142851,-0.47964367,0.14968261,-83.59242,16.272339,-20.738281,-0.08393056,-0.19877337,0.00796746,-1.4523749,2.6874144,0.18213402,104.328415,-15.631803,-20.738281,-0.31300977,-5.9741406,333.26764,0.6116823,-0.9999408,1.0,0.9999984,1.0,0.9998899,-1.0,-1.0,0.0,0.0,0.6277623,-0.99994606,1.0,0.99999815,1.0,0.99986255,-1.0,-1.0
0,45,128,128.0,-0.0359092901158665,0.3988878,0.97656643,0.050849807,0.16868229,0.12360643,-0.31688827,0.14101875,0.93792087,0.036042042,-0.3164869,0.0046731518,2.1796935,-7.223761,3.440056,-0.23316248,-0.43022877,-0.59541327,0.87266123,0.1601839,0.6900194,-1.2839315,-0.4372806,-3.894071,-7.712134,-0.108537175,16.429258,14.549015,9.470815,-5.7095428,6.468034,0.0030896384,-0.0021431574,0.39890763,-0.011781288,-0.019135877,-0.16491988,2.1919706,2.6650586,12.189082,0.07348991,0.27372652,0.0056246114,1.1202562,-0.5164836,0.13280141,-86.20644,18.19775,-21.660631,-0.087819174,-0.19090588,0.0090520615,-1.4922271,2.827064,0.213773,109.26376,-17.640572,-21.660631,-0.33204216,-6.221193,347.21274,0.6277623,-0.99994606,1.0,0.99999815,1.0,0.99986255,-1.0,-1.0,0.0,0.0,0.66027594,-0.9999498,1.0,0.9999979,1.0,0.9998144,-1.0,-1.0
0,46,128,128.0,-0.0380038058495275,0.39845034,0.97600865,0.048288666,0.16819607,0.12955868,-0.3158091,0.1378448,0.93875635,0.042959932,-0.3342393,-0.009114152,2.0099797,-7.41625,3.1722832,-0.2410107,-0.445396,-0.5958348,0.90557164,0.19020775,0.7090216,-1.2950245,-0.42378175,-3.9571154,-7.4580903,-0.30612624,16.477953,15.472713,9.524626,-5.376223,7.0274596,0.0030572892,-0.0021921252,0.3984702,-0.011070721,-0.018904563,-0.18101911,2.5472677,2.7807565,13.949538,0.07647311,0.2716496,0.0059977337,1.1258513,-0.55147344,0.11449753,-88.86071,20.337477,-22.81848,-0.0918315,-0.18266295,0.010298618,-1.532253,2.9656851,0.2506027,114.430115,-19.918367,-22.81848,-0.3523301,-6.4793935,361.7984,0.66027594,-0.9999498,1.0,0.9999979,1.0,0.9998144,-1.0,-1.0,0.0,0.0,0.71564865,-0.999952,1.0,0.9999977,1.0,0.9997057,-1.0,-1.0
0,47,128,128.0,-0.040096116365568,0.39797363,0.97545415,0.04545453,0.16739239,0.13565707,-0.31423452,0.13409564,0.93982714,0.049271178,-0.352294,-0.023865165,1.8536272,-7.669217,2.8280714,-0.24898401,-0.46006563,-0.59661233,0.93855834,0.22207654,0.72809047,-1.3054026,-0.40918428,-4.019182,-7.2138214,-0.46549487,16.505947,16.393593,9.537057,-4.9944544,7.56685,0.003024941,-0.0022410934,0.39799348,-0.010248234,-0.018691886,-0.19694965,2.958522,2.8871357,15.79435,0.07952576,0.26944625,0.006352164,1.1309918,-0.5841961,0.09499282,-91.53148,22.71302,-24.24283,-0.095967956,-0.17404886,0.011726908,-1.5723826,3.103,0.2928973,119.81925,-22.501684,-24.24283,-0.37396547,-6.748473,377.00836,0.71564865,-0.999952,1.0,0.9999977,1.0,0.9997057,-1.0,-1.0,0.0,0.0,0.771106,-0.99995357,1.0,0.9999975,1.0,0.9994894,-1.0,-1.0
0,48,128,128.0,-0.0421858122785388,0.3974577,0.9748981,0.042353183,0.16626425,0.14190176,-0.31216103,0.12976868,0.9411246,0.05496285,-0.37072882,-0.039771266,1.7057416,-7.9173365,2.4273055,-0.25708026,-0.47425282,-0.5976749,0.971582,0.25578237,0.74714124,-1.3149685,-0.39352703,-4.08006,-6.9749794,-0.5919897,16.515163,17.309359,9.506189,-4.564035,8.087473,0.002992594,-0.0022900628,0.39747754,-0.009296497,-0.018506136,-0.21269794,3.4343984,2.9800527,17.730284,0.08264996,0.2671234,0.0066894023,1.1355382,-0.6140371,0.07442821,-94.184364,25.345829,-25.960806,-0.1002287,-0.16506897,0.013357676,-1.6125568,3.2387185,0.34094983,125.414635,-25.43052,-25.960806,-0.39704102,-7.027759,392.8026,0.771106,-0.99995357,1.0,0.9999975,1.0,0.9994894,-1.0,-1.0,0.0,0.0,0.80805993,-0.9999543,1.0,0.9999973,1.0,0.9991456,-1.0,-1.0
0,49,128,128.0,-0.044272881054982,0.39690247,0.9743348,0.038993075,0.16480452,0.14829281,-0.30958423,0.124865666,0.94263786,0.06001055,-0.3894852,-0.05698307,1.5636201,-8.104099,1.9901184,-0.26530337,-0.48796648,-0.5989616,1.0046076,0.2913089,0.7660849,-1.3236264,-0.37684587,-4.1461024,-6.739714,-0.690306,16.508158,18.213913,9.429595,-4.0865183,8.591071,0.002960248,-0.0023390334,0.39692235,-0.0081964675,-0.018359944,-0.22824804,3.9844184,3.0531907,19.76532,0.085847825,0.2646876,0.007011408,1.1395411,-0.6410709,0.052930024,-96.791405,28.257315,-27.996637,-0.10461354,-0.15573022,0.015212452,-1.6526823,3.3723798,0.39502174,131.19739,-28.749224,-27.996637,-0.4216511,-7.31693,409.1577,0.80805993,-0.9999543,1.0,0.9999973,1.0,0.9991456,-1.0,-1.0,0.0,0.0,0.8329174,-0.9999518,1.0,0.99999744,1.0,0.9984684,-1.0,-1.0
0,50,128,128.0,-0.046357391339527,0.39630803,0.97375774,0.035386406,0.16300686,0.1548304,-0.3064999,0.11939499,0.94435304,0.0643834,-0.40838626,-0.07560598,1.428419,-8.2427635,1.5112163,-0.27366808,-0.50121164,-0.6004201,1.0376047,0.32862884,0.78482735,-1.3312833,-0.35917288,-4.2217054,-6.5058694,-0.7645686,16.486954,19.102304,9.304523,-3.563297,9.079652,0.0029279036,-0.002388005,0.3963279,-0.006927169,-0.018269548,-0.24358451,4.619068,3.0984302,21.907188,0.08912204,0.26214358,0.0073207025,1.143234,-0.66591954,0.030641751,-99.33035,31.468914,-30.372711,-0.109121956,-0.14604153,0.01731336,-1.6926378,3.503362,0.45532766,137.14467,-32.506775,-30.372711,-0.44789225,-7.6159663,426.06442,0.8329174,-0.9999518,1.0,0.99999744,1.0,0.9984684,-1.0,-1.0,0.0,0.0,0.8432153,-0.9999388,1.0,0.99999803,1.0,0.99654317,-1.0,-1.0
0,51,128,128.0,-0.0484399774537003,0.39567435,0.9731597,0.031548824,0.16086583,0.1615149,-0.30290425,0.11337132,0.94625366,0.06805079,-0.42727867,-0.0957503,1.299757,-8.321089,0.9979422,-0.28219905,-0.5139899,-0.60200626,1.0705471,0.36770427,0.80326784,-1.3378496,-0.34053576,-4.312419,-6.272257,-0.8183856,16.453548,19.96896,9.127232,-2.9959762,9.555582,0.0028955613,-0.0024369773,0.39569426,-0.005465014,-0.018254377,-0.25868985,5.3501396,3.106056,24.16463,0.09247559,0.25949547,0.007620302,1.1468211,-0.689,0.0076838294,-101.76869,35.000607,-33.108406,-0.11375312,-0.13601385,0.019682994,-1.7323179,3.6310167,0.52205724,143.22034,-36.755276,-33.108406,-0.47586027,-7.92442,443.4866,0.8432153,-0.9999388,1.0,0.99999803,1.0,0.99654317,-1.0,-1.0,0.0,0.0,0.85438246,-0.999932,1.0,0.9999974,1.0,0.9930595,-1.0,-1.0
0,52,128,128.0,-0.0505214711165814,0.3950014,0.9725328,0.027498383,0.15837666,0.16834685,-0.29879346,0.106813565,0.94832134,0.07097979,-0.44598162,-0.117504604,1.1801661,-8.379016,0.43165672,-0.2909266,-0.5262988,-0.60368216,1.1034112,0.40848902,0.8212983,-1.3432375,-0.32095742,-4.418349,-6.035947,-0.8549224,16.408863,20.811136,8.8941,-2.3852432,10.02134,0.002863222,-0.0024859505,0.39502135,-0.0037853136,-0.018340103,-0.27354762,6.1899757,3.0632308,26.545855,0.0959119,0.2567462,0.007913772,1.1505572,-0.71079105,-0.015812367,-104.067924,38.869656,-36.21898,-0.11850589,-0.12566037,0.022344101,-1.7716209,3.7546291,0.5953232,149.37476,-41.549107,-36.21898,-0.5056481,-8.241594,461.36954,0.85438246,-0.999932,1.0,0.9999974,1.0,0.9930595,-1.0,-1.0,0.0,0.0,0.8732637,-0.9999389,1.0,0.9999949,0.99999994,0.98702896,-1.0,-1.0
0,53,128,128.0,-0.0526025656304104,0.39428926,0.97186875,0.023253763,0.15553418,0.17532697,-0.29416242,0.09974109,0.9505368,0.07313898,-0.46439275,-0.14098874,1.0695843,-8.432817,-0.1952363,-0.29987866,-0.53812945,-0.60541624,1.1361749,0.45093247,0.8388031,-1.3473604,-0.3004556,-4.5369945,-5.79346,-0.8769476,16.353216,21.62716,8.601085,-1.7311548,10.479504,0.002830886,-0.002534924,0.3943092,-0.0018603873,-0.018555881,-0.28813902,7.1524158,2.9553766,29.060297,0.09943423,0.2538993,0.008205018,1.1545736,-0.73131895,-0.03977304,-106.17018,43.08735,-39.71489,-0.12337883,-0.11499634,0.025319485,-1.8104882,3.8735285,0.6752192,155.53685,-46.941982,-39.71489,-0.53733975,-8.565912,479.60593,0.8732637,-0.9999389,1.0,0.9999949,0.99999994,0.98702896,-1.0,-1.0,0.0,0.0,0.9009214,-0.99995655,1.0,0.99999005,0.99999994,0.9741634,-1.0,-1.0
0,54,128,128.0,-0.0546830086585351,0.39353785,0.9711589,0.018833524,0.15233311,0.18245606,-0.28900537,0.092172325,0.9528799,0.074492946,-0.4824399,-0.16633289,0.96428347,-8.482976,-0.87109506,-0.30907783,-0.5494674,-0.6071819,1.1688166,0.49498034,0.85565555,-1.3501296,-0.2790429,-4.665468,-5.5426636,-0.8868536,16.286802,22.414978,8.241328,-1.0321348,10.932737,0.0027985533,-0.0025838981,0.39355782,0.00033934903,-0.018936727,-0.3024445,8.252251,2.7649858,31.717684,0.103045404,0.2509593,0.008498144,1.1589521,-0.75043076,-0.064162955,-108.00247,47.65583,-43.600292,-0.12837023,-0.104039095,0.028631696,-1.8488966,3.9870613,0.7617763,161.61308,-52.983498,-43.600292,-0.5710047,-8.895066,498.04086,0.9009214,-0.99995655,1.0,0.99999005,0.99999994,0.9741634,-1.0,-1.0,0.0,0.0,0.9313284,-0.9999787,1.0,0.9999763,0.9999999,0.9355874,-1.0,-1.0
0,55,128,128.0,-0.0567582915655394,0.3927472,0.9703939,0.014255612,0.14877161,0.18973525,-0.28332284,0.08412525,0.95532775,0.07499613,-0.5000489,-0.19363973,0.85074,-8.513419,-1.5214905,-0.31854412,-0.56030124,-0.6089568,1.2013158,0.54057115,0.8717024,-1.3514467,-0.2567264,-4.804193,-5.2887692,-0.8865873,16.210928,23.169369,7.7952285,-0.27935332,11.383857,0.0027662243,-0.0026328724,0.3927672,0.002843188,-0.019526891,-0.31644422,9.504126,2.4699297,34.52798,0.10674767,0.24793167,0.008797404,1.1637639,-0.7679665,-0.08894005,-109.4806,52.56482,-47.866734,-0.13347794,-0.092808194,0.032302253,-1.8868417,4.094602,0.8548173,167.4875,-59.715202,-47.866734,-0.60669124,-9.22612,516.4776,0.9313284,-0.9999787,1.0,0.9999763,0.9999999,0.9355874,-1.0,-1.0,0.0,0.0,0.9603173,-0.9999952,1.0,0.99994904,0.99999887,0.7445289,-1.0,-1.0
0,56,128,128.0,-0.0588239052891535,0.3919173,0.96955997,0.009532195,0.14487222,0.19716647,-0.27716303,0.07561599,0.9578428,0.07458047,-0.51711005,-0.22286084,0.645625,-8.552384,-1.6935375,-0.32830805,-0.5706738,-0.6107215,1.2336615,0.58761996,0.88666785,-1.351142,-0.233508,-4.9635577,-5.0801206,-0.8769174,16.133516,23.871538,7.1604967,0.58899397,11.835404,0.0027338988,-0.0026818463,0.39193732,0.0056805103,-0.020377861,-0.330118,10.922732,2.0444658,37.501232,0.11054267,0.24482241,0.009107476,1.1690575,-0.7839141,-0.11389901,-110.5143,57.78875,-52.465843,-0.13869913,-0.08132527,0.03634887,-1.9243032,4.1956706,0.9533629,173.02327,-67.165184,-52.465843,-0.6444198,-9.555654,534.68494,0.9603173,-0.9999952,1.0,0.99994904,0.99999887,0.7445289,-1.0,-1.0,0.0,0.0,0.996586,-0.99999964,1.0,0.9999891,0.9999968,-0.13484423,-1.0,-1.0
0,57,128,128.0,-0.0608731443146686,0.3910481,0.968627,0.004642633,0.14076869,0.20475462,-0.27079657,0.066644736,0.96032685,0.07306438,-0.533567,-0.25306237,0.088578925,-8.856285,0.42169616,-0.33845443,-0.58089566,-0.6124537,1.2658863,0.63595074,0.89973336,-1.3486954,-0.20938735,-5.1887693,-5.133906,-0.854478,16.090694,24.446596,5.900034,1.861603,12.287378,0.0027015738,-0.0027308129,0.3910682,0.0088817645,-0.021545406,-0.34344512,12.523312,1.4607068,40.64781,0.114429906,0.24163847,0.009435132,1.174167,-0.79796726,-0.13782585,-110.992935,63.28173,-57.101963,-0.1440281,-0.069612056,0.04076834,-1.9610993,4.291057,1.0514686,178.06912,-75.339516,-57.101963,-0.6841714,-9.879385,552.3772,0.996586,-0.99999964,1.0,0.9999891,0.9999968,-0.13484423,-1.0,-1.0,0.0,0.0,0.99949116,-0.99999994,1.0,0.9999985,0.9999104,-0.4909351,-1.0,-1.0
0,58,128,128.0,-0.0629094482770036,0.39013973,0.9675647,-0.00043304806,0.1365986,0.21250701,-0.26451147,0.057223298,0.9626833,0.069976635,-0.5498662,-0.27980536,0.19542311,-8.764795,0.45902836,-0.3491088,-0.59129196,-0.6141339,1.2980398,0.6853215,0.91002184,-1.3435277,-0.1843536,-5.472153,-5.252765,-0.82518077,16.062279,24.909746,4.3852625,3.31019,12.748329,0.0026692313,-0.0027797453,0.39015985,0.0124987215,-0.023069328,-0.35637832,14.331829,0.69875914,43.991184,0.11839936,0.23839258,0.009795679,1.1746858,-0.8075357,-0.15547538,-110.72824,68.97168,-60.446915,-0.1494482,-0.057679493,0.04546674,-1.9968939,4.387929,1.122638,182.5245,-84.210686,-60.446915,-0.72586244,-10.192097,569.21246,0.99949116,-0.99999994,1.0,0.9999985,0.9999104,-0.4909351,-1.0,-1.0,0.0,0.0,0.99960685,-1.0,1.0,0.9999995,0.99923986,-0.6236987,-1.0,-1.0
0,59,128,128.0,-0.0649425633614085,0.3891921,0.96636033,-0.0056762383,0.13238457,0.22043107,-0.25835592,0.04739782,0.96488637,0.06648861,-0.56517136,-0.30706918,0.49382734,-8.440572,-0.38575804,-0.36037755,-0.6019088,-0.6157516,1.3301401,0.7355185,0.91717887,-1.3353807,-0.15838906,-5.8030367,-5.3537374,-0.7922247,16.03739,25.272276,2.7688868,4.841531,13.217432,0.0026368876,-0.0028286676,0.38921228,0.016533796,-0.025052935,-0.368881,16.34942,-0.2930344,47.549786,0.122457206,0.23508754,0.010196861,1.1734957,-0.81495285,-0.17081445,-109.75408,74.791595,-63.49588,-0.1549427,-0.045560926,0.05043812,-2.0333707,4.482118,1.186761,186.259,-93.74091,-63.49588,-0.76937854,-10.494522,585.1414,0.99960685,-1.0,1.0,0.9999995,0.99923986,-0.6236987,-1.0,-1.0,0.0,0.0,0.9994071,-1.0,1.0,0.99999964,0.9991738,-0.73610973,-1.0,-1.0
0,60,128,128.0,-0.0668496995112756,0.3882053,0.9650062,-0.011056396,0.1281131,0.22853413,-0.25230443,0.037222475,0.9669317,0.06289344,-0.578977,-0.33650473,0.7837555,-7.993238,-1.3412528,-0.37235343,-0.6126986,-0.61730087,1.3621925,0.7863398,0.9210172,-1.3240932,-0.1314825,-6.8619947,-5.6288476,-0.74524033,15.984023,24.647556,0.7164457,6.6162972,13.722295,0.0026045495,-0.0028775902,0.38822547,0.020997288,-0.027573092,-0.380967,18.581203,-1.5531069,51.31673,0.12660836,0.23172854,0.010645478,1.1719939,-0.8212559,-0.1856251,-108.04461,80.64489,-66.6524,-0.16050018,-0.03328463,0.055684455,-2.0711162,4.5714607,1.2520766,189.10156,-103.86039,-66.6524,-0.8145759,-10.783579,599.9283,0.9994071,-1.0,1.0,0.99999964,0.9991738,-0.73610973,-1.0,-1.0,0.0,0.0,0.9983185,-1.0,1.0,0.99999964,0.9998099,-0.85998935,-1.0,-1.0
0,61,128,128.0,-0.068343697677041,0.38718018,0.9634333,-0.015004281,0.12504056,0.23650774,-0.2480026,0.03015931,0.9682898,0.061478943,-0.57140017,-0.361849,7.823404,49.57154,16.398247,-0.39027786,-0.6251266,-0.61869675,1.3939774,0.8309469,0.9188635,-1.30838,-0.10334188,-10.983119,-6.762146,-0.65396005,15.806295,20.0751,-2.7864528,9.046288,14.426741,0.0025722182,-0.0029265138,0.3871994,0.025498582,-0.030948482,-0.39299533,20.831923,-3.2408142,55.112545,0.13085791,0.22827479,0.011184544,1.172609,-0.85225356,-0.17621163,-105.009,85.72729,-66.88017,-0.1660748,-0.021052575,0.061042294,-2.097496,4.567861,1.2463076,188.30038,-113.845276,-66.88017,-0.8610587,-10.960837,607.86993,0.9983185,-1.0,1.0,0.99999964,0.9998099,-0.85998935,-1.0,-1.0,0.0,0.0,-0.9708733,-1.0,1.0,0.99999994,0.99999976,0.26712385,-1.0,-1.0
0,62,128,128.0,-0.0700834917725076,0.38611478,0.96164477,-0.016907636,0.12359386,0.24429078,-0.24594289,0.027803099,0.9688855,0.07251028,-0.4764895,-0.3556988,8.208109,47.279938,13.765568,-0.41656056,-0.6395738,-0.6199372,1.4255484,0.86706054,0.9107805,-1.2887948,-0.07366141,-15.233403,-7.651423,-0.5888134,15.767975,16.140282,-5.2312374,10.498811,15.258335,0.0025401292,-0.002975118,0.3861342,0.028103407,-0.03572147,-0.40672338,22.134056,-5.62774,58.05782,0.13531052,0.22431873,0.012120482,1.180915,-0.99256015,-0.05971167,-99.19891,87.422424,-52.956448,-0.17133778,-0.010330642,0.06510201,-2.069895,4.185786,0.9070252,175.20012,-120.42244,-52.956448,-0.9064996,-10.695885,590.4928,-0.9708733,-1.0,1.0,0.99999994,0.99999976,0.26712385,-1.0,-1.0,0.0,0.0,-0.9960538,-1.0,1.0,1.0,0.9999999,0.6398088,-1.0,-1.0
0,63,128,128.0,-0.0719342754191089,0.38501024,0.9596705,-0.016928779,0.12351963,0.2519701,-0.24558717,0.02969846,0.96891946,0.086115524,-0.38665617,-0.351829,7.823386,42.95225,11.020391,-0.45097086,-0.6555184,-0.62106293,1.4570403,0.895889,0.8983693,-1.2666919,-0.042281203,-19.117786,-8.262646,-0.53868276,15.725567,12.776969,-7.126557,11.571084,16.123964,0.002508048,-0.003023755,0.3850298,0.02873297,-0.040698905,-0.42371687,22.448462,-8.116915,59.370678,0.14013205,0.21989073,0.013393062,1.2180395,-1.1542478,0.045975495,-95.644745,90.35697,-44.016384,-0.1764019,-0.0004485407,0.06851973,-2.0512836,3.874714,0.6582953,164.39354,-127.08116,-44.016384,-0.95166576,-10.555794,581.8361,-0.9960538,-1.0,1.0,1.0,0.9999999,0.6398088,-1.0,-1.0,0.0,0.0,-0.99575436,-1.0,1.0,1.0,0.99999875,0.6328433,-1.0,-1.0
0,64,128,128.0,-0.073853156448091,0.38386646,0.9575241,-0.015321314,0.124622405,0.25958064,-0.24659477,0.0353087,0.9684752,0.1005776,-0.3063306,-0.35144508,7.2060804,38.799355,9.079003,-0.4928074,-0.6725076,-0.62209815,1.488456,0.9184991,0.8824647,-1.2426255,-0.009161753,-22.665077,-8.697819,-0.49794486,15.690934,9.910474,-8.733847,12.468784,16.99574,0.0024759397,-0.0030724308,0.3838861,0.02933076,-0.045371335,-0.44055346,22.746988,-10.453566,60.762188,0.14531797,0.21509264,0.015005115,1.2550071,-1.298891,0.13875327,-92.115105,93.41469,-37.05026,-0.18129003,0.008743457,0.071373805,-2.040453,3.6141548,0.4540581,154.089,-133.19437,-37.05026,-0.9964859,-10.433486,574.69995,-0.99575436,-1.0,1.0,1.0,0.99999875,0.6328433,-1.0,-1.0,0.0,0.0,-0.99711,-1.0,1.0,1.0,0.99998873,0.6280016,-1.0,-1.0
0,65,128,128.0,-0.0758595497786101,0.3826834,0.95520204,-0.012329277,0.126758,0.26715052,-0.24873208,0.044129275,0.9675665,0.11534479,-0.23524782,-0.35379857,6.520662,35.350033,6.953921,-0.54142654,-0.69020015,-0.62305987,1.5198057,0.93581885,0.8635902,-1.2169101,0.025700297,-25.904613,-8.967958,-0.46502897,15.658709,7.4765897,-10.105038,13.225165,17.8656,0.002443799,-0.0031211346,0.38270316,0.029817302,-0.049920477,-0.45705816,22.989922,-12.728545,62.31975,0.1508683,0.21001455,0.01696305,1.2886593,-1.4263107,0.22141442,-88.448715,96.436066,-31.35046,-0.18602502,0.017386954,0.07373385,-2.0378993,3.4026594,0.28019908,144.26144,-138.71486,-31.35046,-1.0408092,-10.328837,568.4753,-0.99711,-1.0,1.0,1.0,0.99998873,0.6280016,-1.0,-1.0,0.0,0.0,-0.9992322,-1.0,1.0,1.0,0.9999864,0.6764122,-1.0,-1.0
0,66,128,128.0,-0.0779911133800414,0.3814611,0.95269334,-0.008167383,0.12979797,0.27470204,-0.25179118,0.05571064,0.96617675,0.13018636,-0.17206602,-0.3598095,5.788588,32.546272,4.55888,-0.59623563,-0.7082677,-0.62396306,1.5510864,0.9486561,0.84219396,-1.1898237,0.06230056,-28.858242,-9.075024,-0.43919665,15.621287,5.419157,-11.263576,13.8439455,18.733694,0.0024116302,-0.0031698642,0.38148096,0.030219939,-0.054392774,-0.47320098,23.19094,-14.965069,64.058334,0.15678728,0.20474777,0.019274065,1.3194032,-1.5389316,0.29501846,-84.61572,99.3141,-26.79143,-0.19062223,0.025587114,0.075672306,-2.0421753,3.2312462,0.13364962,134.80717,-143.6328,-26.79143,-1.0844206,-10.235704,562.75476,-0.9992322,-1.0,1.0,1.0,0.9999864,0.6764122,-1.0,-1.0,0.0,0.0,-0.9996459,-1.0,1.0,0.9999999,0.9999381,0.9362347,-1.0,-1.0
0,67,128,128.0,-0.0802418852089086,0.3801996,0.94998413,-0.0030152847,0.13361847,0.2822538,-0.25556546,0.069665164,0.9642785,0.14493956,-0.115594156,-0.37039626,5.0494237,30.517841,1.5343275,-0.6566767,-0.7263592,-0.62482256,1.5822711,0.9577141,0.8187544,-1.1617198,0.100653864,-31.538517,-8.994855,-0.42111936,15.561766,3.6895714,-12.156223,14.24557,19.619513,0.002379436,-0.003218618,0.38021952,0.030584224,-0.058797337,-0.48903346,23.372831,-17.167683,65.95216,0.16307917,0.19938795,0.021945003,1.3483958,-1.6393743,0.3604349,-80.62894,101.95624,-23.307589,-0.1950943,0.033423807,0.07725842,-2.0514562,3.0909688,0.012491041,125.64239,-147.92381,-23.307589,-1.1270522,-10.147819,557.2071,-0.9996459,-1.0,1.0,0.9999999,0.9999381,0.9362347,-1.0,-1.0,0.0,0.0,-0.99887216,-1.0,1.0,0.99999994,0.9990375,0.9893071,-1.0,-1.0
0,68,128,128.0,-0.0825938349854824,0.37889883,0.9470563,0.0029642647,0.13811857,0.28982553,-0.25988942,0.08564438,0.9618329,0.15954648,-0.06444365,-0.38706475,4.2306623,28.37001,-1.0522099,-0.7222161,-0.7441554,-0.6256511,1.6133232,0.963603,0.79365927,-1.1329186,0.14078376,-33.95868,-8.781757,-0.40813702,15.488458,2.2433012,-12.925749,14.544196,20.51059,0.0023472216,-0.0032673958,0.37891886,0.030867461,-0.06318132,-0.5046256,23.51424,-19.359957,67.96616,0.16975096,0.19403343,0.024982147,1.3789262,-1.7312641,0.41856322,-76.51971,104.24248,-21.085407,-0.19944733,0.040943664,0.07857159,-2.0622473,2.9697218,-0.08119263,116.60391,-151.46893,-21.085407,-1.1683735,-10.0552635,551.2759,-0.99887216,-1.0,1.0,0.99999994,0.9990375,0.9893071,-1.0,-1.0,0.0,0.0,-0.99815834,-1.0,1.0,0.99999994,0.9960987,0.9955463,-1.0,-1.0
0,69,128,128.0,-0.0848053455920338,0.37755883,0.9438859,0.009609017,0.1432329,0.29744127,-0.2646732,0.10331881,0.95878744,0.17384413,-0.018992905,-0.40909654,3.386547,26.295805,-3.5733602,-0.7923465,-0.7614105,-0.62645787,1.644216,0.96685034,0.767094,-1.1035852,0.18269813,-34.575333,-7.748583,-0.4013815,14.834815,1.0895752,-13.543233,15.402281,21.125326,0.002314985,-0.0033161934,0.3775789,0.031115733,-0.06754841,-0.520042,23.638226,-21.54374,70.068085,0.17679721,0.18879576,0.028387919,1.4098042,-1.8150042,0.47096726,-72.37484,106.17769,-19.662525,-0.20369333,0.0482019,0.07965693,-2.07521,2.8678157,-0.15636306,107.89408,-154.37027,-19.662525,-1.2080514,-9.962327,545.26764,-0.99815834,-1.0,1.0,0.99999994,0.9960987,0.9955463,-1.0,-1.0,0.0,0.0,-0.9987641,-1.0,1.0,1.0,0.9959251,0.99769324,-1.0,-1.0
0,70,128,128.0,-0.086294523637577,0.37618318,0.940936,0.01605732,0.14729066,0.30444542,-0.26747093,0.11996984,0.9560683,0.18395285,0.0065959264,-0.44151017,-8.57057,-17.349121,-20.120708,-0.8548665,-0.7728526,-0.6272645,1.6706971,0.9682401,0.73977584,-1.0691371,0.22427356,-28.108767,-3.8441322,-0.4046964,11.727042,0.31795406,-13.790859,18.967154,20.47105,0.0022827275,-0.0033650112,0.37619972,0.031622812,-0.071874805,-0.5352212,23.891426,-23.706678,72.2886,0.184082,0.18389976,0.03206346,1.382042,-1.8456144,0.48175022,-65.96957,105.14587,-12.952449,-0.20781572,0.055140145,0.080412544,-2.083208,2.7374575,-0.27450857,97.35367,-154.3376,-12.952449,-1.2453071,-9.679539,528.3204,-0.9987641,-1.0,1.0,1.0,0.9959251,0.99769324,-1.0,-1.0,0.0,0.0,-0.99256533,-1.0,1.0,1.0,0.99999684,0.9956887,-1.0,-1.0
0,71,128,128.0,-0.0880739047920478,0.37476376,0.9383785,0.022069987,0.14979716,0.3106759,-0.26746443,0.1345446,0.95412815,0.1746952,-0.03942029,-0.4934379,-7.835796,-17.381409,-14.373825,-0.90539575,-0.77730644,-0.62807375,1.6914173,0.96819216,0.7118804,-1.0279734,0.26465186,-22.564638,-0.72279805,-0.40376192,9.060199,-0.34885988,-14.11435,22.143763,19.921453,0.0022504488,-0.0034140956,0.3747812,0.032874867,-0.07598801,-0.5500014,24.516207,-25.762194,74.709465,0.18999273,0.1801278,0.03485467,1.1131916,-1.6857243,0.3314096,-51.8064,92.75086,18.29557,-0.2119653,0.06100619,0.07983915,-2.0600739,2.430549,-0.62414247,79.49529,-143.48816,18.29557,-1.2759403,-8.633355,467.79987,-0.99256533,-1.0,1.0,1.0,0.99999684,0.9956887,-1.0,-1.0,0.0,0.0,-0.9997493,-1.0,1.0,1.0,0.9999996,0.99988276,-1.0,-1.0
0,72,128,128.0,-0.0900376232321623,0.37330538,0.93615013,0.027788538,0.1510493,0.3162829,-0.26526204,0.14761166,0.95281,0.1652329,-0.08418808,-0.53551227,-6.9831567,-16.510803,-10.238994,-0.9456634,-0.7761371,-0.6288764,1.7071825,0.96691054,0.6832888,-0.9807329,0.30400392,-17.829103,1.8054852,-0.3981283,6.7612114,-0.91690284,-14.484008,25.063808,19.438599,0.0022181694,-0.003463145,0.37332344,0.030157793,-0.0810626,-0.5648769,23.156933,-28.298828,77.08224,0.1947464,0.17686999,0.036910027,0.90362173,-1.5727158,0.2075131,-41.855263,82.7352,44.05887,-0.21636298,0.06620733,0.078518495,-2.03717,2.1724336,-0.91246384,66.051704,-134.16637,44.05887,-1.3021121,-7.8000183,420.69138,-0.9997493,-1.0,1.0,1.0,0.9999996,0.99988276,-1.0,-1.0,0.0,0.0,-0.99998105,-1.0,1.0,1.0,0.9999996,0.9999313,-1.0,-1.0
0,73,128,128.0,-0.0921091475605205,0.37180793,0.934205,0.033320542,0.15125531,0.32136047,-0.2612121,0.15949695,0.95201313,0.15569563,-0.12630111,-0.57066095,-6.2115808,-15.094335,-7.3953233,-0.97718203,-0.77038914,-0.6296635,1.7186679,0.9645853,0.6539188,-0.9278156,0.34242624,-13.799485,3.8749425,-0.38842544,4.771416,-1.3938193,-14.892566,27.836897,18.98588,0.0021858923,-0.00351217,0.37182647,0.02764956,-0.08567417,-0.5797704,21.902382,-30.604193,79.44588,0.1984865,0.17390092,0.038292047,0.7345799,-1.4883038,0.102299556,-34.56538,74.59486,65.46366,-0.22098951,0.07083734,0.07659136,-2.0128474,1.9498878,-1.1497314,55.59376,-126.1234,65.46366,-1.3249458,-7.110724,383.08112,-0.99998105,-1.0,1.0,1.0,0.9999996,0.9999313,-1.0,-1.0,0.0,0.0,-0.99999785,-1.0,1.0,1.0,1.0,0.99838203,-1.0,-1.0
0,74,128,128.0,-0.0942362777621068,0.37027138,0.93250954,0.038749892,0.1505639,0.3259676,-0.25555688,0.17044656,0.9516505,0.14596538,-0.16499756,-0.6011895,-5.586642,-13.375608,-5.5776052,-1.0012704,-0.76087683,-0.630428,1.7264415,0.9613905,0.62368906,-0.86942077,0.3799445,-10.384414,5.5839233,-0.37565038,3.0421255,-1.7879113,-15.345447,30.555851,18.528994,0.0021536185,-0.0035611775,0.37029025,0.025341671,-0.08989316,-0.5945979,20.748186,-32.713406,81.842384,0.20134185,0.17106855,0.03906483,0.5938331,-1.422628,0.009971935,-28.950537,67.58913,83.35829,-0.22581826,0.07496238,0.07417447,-1.9856942,1.7539846,-1.3437213,47.144222,-118.80123,83.35829,-1.3452284,-6.5233846,351.21082,-0.99999785,-1.0,1.0,1.0,1.0,0.99838203,-1.0,-1.0,0.0,0.0,-0.9999993,-1.0,1.0,1.0,1.0,0.9997448,-1.0,-1.0
0,75,128,128.0,-0.0963872881645782,0.36869568,0.93103844,0.0441441,0.14908388,0.3301405,-0.24846883,0.18065207,0.95164496,0.13583514,-0.1999196,-0.62891364,-5.1220884,-11.509589,-4.574124,-1.0190749,-0.7482434,-0.6311648,1.7309821,0.9574833,0.5924992,-0.805574,0.41651785,-7.5030594,7.00693,-0.3608193,1.5317948,-2.1075547,-15.855701,33.302326,18.035439,0.0021213486,-0.003610173,0.3687148,0.023300253,-0.093743704,-0.6093208,19.727339,-34.63848,84.2911,0.20342551,0.16827746,0.039289933,0.4731629,-1.3694832,-0.073608086,-24.479042,61.40088,98.34975,-0.23081745,0.07862661,0.07136775,-1.9538195,1.5771818,-1.5000076,40.130676,-111.96812,98.34975,-1.363493,-6.0076494,323.29013,-0.9999993,-1.0,1.0,1.0,1.0,0.9997448,-1.0,-1.0,0.0,0.0,-1.0,-1.0,1.0,1.0,0.99999976,0.99999994,-1.0,-1.0
0,76,128,128.0,-0.0985455888899428,0.36708078,0.929772,0.049559504,0.14689754,0.33389962,-0.24007472,0.1902684,0.95192546,0.1250655,-0.23094627,-0.6552746,-4.8194275,-9.593881,-4.209426,-1.0315905,-0.7330011,-0.6318705,1.7326906,0.9530044,0.5602138,-0.7361395,0.45203957,-5.0842485,8.201219,-0.34474388,0.2045055,-2.3608706,-16.444874,36.15667,17.471785,0.002089083,-0.0036591596,0.36710012,0.021516278,-0.0972526,-0.6239304,18.835283,-36.39278,86.79648,0.20483492,0.16547431,0.039024144,0.36709562,-1.3251121,-0.15135285,-20.813848,55.777092,110.84868,-0.23595005,0.08185594,0.06826004,-1.9147342,1.4130336,-1.6222483,34.16755,-105.41238,110.84868,-1.380082,-5.5413384,297.99667,-1.0,-1.0,1.0,1.0,0.99999976,0.99999994,-1.0,-1.0,0.0,0.0,-1.0,-1.0,1.0,1.0,0.9999938,0.9999983,-1.0,-1.0
0,77,128,128.0,-0.1007085682750092,0.3654267,0.9286948,0.055045493,0.14406984,0.33725336,-0.23047158,0.1994275,0.95242405,0.113389194,-0.25809363,-0.68141466,-4.679844,-7.6617804,-4.382211,-1.0396782,-0.71556026,-0.6325433,1.7319006,0.9480789,0.5266511,-0.66082436,0.48633623,-3.0705302,9.277839,-0.32680088,-1.024146,-2.5500193,-16.279282,37.444904,17.665583,0.0020568222,-0.0037081402,0.36544618,0.019975755,-0.100436546,-0.6384343,18.064999,-37.984646,89.35468,0.20565242,0.16263597,0.03831832,0.27178112,-1.2870972,-0.22537889,-17.73484,50.525345,121.11742,-0.24117239,0.0846608,0.06493359,-1.8651321,1.2557733,-1.712524,28.992876,-98.9558,121.11742,-1.3951976,-5.107003,274.3576,-1.0,-1.0,1.0,1.0,0.9999938,0.9999983,-1.0,-1.0,0.0,0.0,-1.0,-1.0,1.0,1.0,0.99993634,0.9997938,-1.0,-1.0
0,78,128,128.0,-0.1029047506789728,0.3637343,0.9278056,0.060964115,0.1406228,0.3401255,-0.21947858,0.20876673,0.9530192,0.100693874,-0.27758196,-0.7143622,-3.957428,5.0182114,-21.998062,-1.0441148,-0.6957694,-0.6331738,1.7285211,0.942852,0.49818873,-0.59270275,0.5258037,-1.4173993,10.478976,-0.3040032,-2.3201985,-2.6712677,-12.252578,30.8079,21.732695,0.002024567,-0.0037571162,0.36375302,0.018620605,-0.10330761,-0.65286237,17.387375,-39.420097,91.95063,0.20593765,0.1597616,0.037214417,0.18031076,-1.2539915,-0.3026501,-14.922132,44.95,127.275,-0.2462642,0.08701452,0.061551966,-1.7178093,1.0899976,-1.7337754,24.074118,-91.64094,127.275,-1.4088413,-4.646616,249.1243,-1.0,-1.0,1.0,1.0,0.99993634,0.9997938,-1.0,-1.0,0.0,0.0,-1.0,-1.0,1.0,1.0,0.9999953,0.94895256,-1.0,-1.0
0,79,128,128.0,-0.1051140743130412,0.3620017,0.9270826,0.06739278,0.13656673,0.34252822,-0.20705694,0.21849896,0.95361716,0.0890723,-0.28009468,-0.7708507,-2.6246326,3.2242804,-17.206898,-1.0455385,-0.6737714,-0.6337601,1.7227473,0.9374156,0.47735888,-0.5370717,0.5730012,-0.0507654,11.491402,-0.28257233,-3.4252346,-2.7598484,-8.643295,24.949461,25.39968,0.0019923607,-0.0038060828,0.3620206,0.017176462,-0.1058555,-0.66735965,16.66532,-40.694046,94.51213,0.20564197,0.15685585,0.035704438,0.077768914,-1.2234325,-0.39779577,-12.061055,38.07632,124.67383,-0.25009537,0.08886906,0.0587244,-1.2371902,0.91029286,-1.5970105,18.971533,-82.14434,124.67383,-1.4206249,-4.0832653,218.0248,-1.0,-1.0,1.0,1.0,0.9999953,0.94895256,-1.0,-1.0,0.0,0.0,-1.0,-1.0,1.0,1.0,0.99999595,-0.87019587,-1.0,-1.0
0,80,128,128.0,-0.1072906112587833,0.36022982,0.92649126,0.07418698,0.1319876,0.34451336,-0.19346164,0.22839893,0.9541522,0.07793632,-0.2865037,-0.81864715,-2.3750322,1.0719277,-11.402596,-1.0444891,-0.65006787,-0.63428867,1.7149776,0.931833,0.4629918,-0.49225837,0.62726676,1.0620208,12.189398,-0.24691653,-4.320851,-2.8179247,-5.783831,19.977396,28.807924,0.0019601379,-0.0038550477,0.36024898,0.015414089,-0.108149104,-0.6819226,15.784216,-41.840874,97.04074,0.2048433,0.15393241,0.033828955,-0.017130509,-1.1926777,-0.48311687,-9.976954,32.8652,124.46549,-0.2534294,0.09041162,0.05607133,-0.8587671,0.776362,-1.508356,15.431046,-74.98002,124.46549,-1.431241,-3.653311,194.72592,-1.0,-1.0,1.0,1.0,0.99999595,-0.87019587,-1.0,-1.0,0.0,0.0,-1.0,-1.0,1.0,1.0,0.99999756,-0.9913872,-1.0,-1.0
0,81,128,128.0,-0.109452539700302,0.3584188,0.9260021,0.08121684,0.1269798,0.34612158,-0.17895278,0.2383061,0.9545607,0.06531491,-0.2974401,-0.8556159,-1.6928295,0.37673602,-8.549546,-1.041432,-0.6251072,-0.6347499,1.7055527,0.9261622,0.4539676,-0.45671597,0.6880199,1.9624369,12.752561,-0.21513672,-5.084725,-2.8486128,-3.2958505,15.669049,31.892826,0.0019278973,-0.0039040071,0.35843807,0.014488275,-0.110319905,-0.69594437,15.321408,-42.926315,99.83994,0.2035331,0.15106419,0.03159299,-0.13347901,-1.1519691,-0.57126087,-8.424099,28.970032,127.28875,-0.25632146,0.0917798,0.053466287,-0.53263724,0.70902836,-1.4653846,13.117866,-70.11657,127.28875,-1.4409323,-3.347641,178.31097,-1.0,-1.0,1.0,1.0,0.99999756,-0.9913872,-1.0,-1.0,0.0,0.0,-1.0,-1.0,1.0,1.0,0.9999996,-0.9983401,-1.0,-1.0
0,82,128,128.0,-0.1116028884777104,0.35656855,0.92559624,0.088417254,0.121575676,0.34738073,-0.16363825,0.24813677,0.954804,0.052368447,-0.31002095,-0.88730764,-1.1453315,0.04843316,-6.4974647,-1.0367604,-0.59912604,-0.63515216,1.6947082,0.9204548,0.44959491,-0.42918575,0.7546406,2.681085,13.213221,-0.18784377,-5.744062,-2.8549902,-1.1274993,11.955302,34.681053,0.001895647,-0.003952964,0.35658798,0.014297647,-0.1124816,-0.70933706,15.226205,-44.007202,102.953674,0.20180304,0.14828645,0.02904913,-0.2452847,-1.1104654,-0.6534881,-7.2351317,25.882671,131.19455,-0.25888783,0.09296936,0.050863355,-0.2671051,0.6687503,-1.4456509,11.442088,-66.458435,131.19455,-1.4497631,-3.1172132,165.73082,-1.0,-1.0,1.0,1.0,0.9999996,-0.9983401,-1.0,-1.0,0.0,0.0,-1.0,-1.0,1.0,1.0,1.0,-0.99821395,-1.0,-1.0
0,83,128,128.0,-0.1137399003806932,0.3546791,0.9252579,0.09573821,0.11580509,0.34831193,-0.1476125,0.25783262,0.95484704,0.03895054,-0.3235078,-0.91513693,-0.72744906,-0.07254311,-4.961684,-1.030811,-0.5723103,-0.6355039,1.682633,0.91475636,0.44926488,-0.4085388,0.8265678,3.244406,13.58965,-0.16449273,-6.3184395,-2.8401349,0.7515809,8.775903,37.20466,0.0018633899,-0.00400192,0.3546986,0.0146039305,-0.114570715,-0.7224189,15.379458,-45.051796,106.222824,0.19970703,0.1456259,0.026234308,-0.3514161,-1.0688293,-0.73008424,-6.3051233,23.391287,135.683,-0.26121238,0.09399055,0.04822794,-0.05000483,0.6467314,-1.440871,10.187396,-63.641373,135.683,-1.4577872,-2.9407158,155.86989,-1.0,-1.0,1.0,1.0,1.0,-0.99821395,-1.0,-1.0,0.0,0.0,-1.0,-1.0,1.0,1.0,1.0,-0.99988973,-1.0,-1.0
0,84,128,128.0,-0.1158620496237138,0.35275045,0.9249729,0.103138946,0.109698944,0.3489321,-0.13096668,0.26735264,0.95465714,0.024908997,-0.33747748,-0.939983,-0.4072724,-0.0665186,-3.8057513,-1.0238707,-0.5448142,-0.6358124,1.6694807,0.9091064,0.45242703,-0.393765,0.9033036,3.6755066,13.8958,-0.1444898,-6.823465,-2.8070343,2.3692577,6.0726056,39.494556,0.0018311276,-0.004050874,0.35277,0.015304585,-0.11659864,-0.7352495,15.729893,-46.065796,109.617546,0.19729017,0.14310367,0.023180813,-0.45227972,-1.027165,-0.8016937,-5.561725,21.341894,140.44586,-0.26335448,0.09484742,0.04553637,0.1295124,0.6377934,-1.4454681,9.226051,-61.43215,140.44586,-1.4650292,-2.803401,147.98592,-1.0,-1.0,1.0,1.0,1.0,-0.99988973,-1.0,-1.0,0.0,0.0,-1.0,-1.0,1.0,1.0,1.0,-0.9999952,-1.0,-1.0
0,85,128,128.0,-0.117968795005288,0.35078257,0.92472863,0.1105858,0.103288755,0.34925523,-0.11378902,0.2766691,0.9542045,0.01014943,-0.35166436,-0.9624791,-0.15761459,0.012349885,-2.93438,-1.0161835,-0.51676625,-0.6360838,1.6553768,0.9035385,0.4585859,-0.38396826,0.9844094,3.9945722,14.143173,-0.12732962,-7.27186,-2.758512,3.752636,3.789916,41.579216,0.0017988614,-0.004099827,0.35080215,0.016328517,-0.11856828,-0.74788064,16.241957,-47.05064,113.112015,0.1945917,0.14073548,0.019917438,-0.5483142,-0.98554206,-0.8688111,-4.9546824,19.618992,145.26825,-0.26535407,0.09553914,0.042772796,0.27994525,0.6382573,-1.45551,8.475552,-59.656902,145.26825,-1.4714953,-2.6945224,141.53114,-1.0,-1.0,1.0,1.0,1.0,-0.9999952,-1.0,-1.0,0.0,0.0,-1.0,-1.0,1.0,1.0,1.0,-0.9999995,-1.0,-1.0
0,86,128,128.0,-0.1200599523535109,0.34877548,0.9245135,0.118050545,0.096605994,0.3492938,-0.09616432,0.28576425,0.9534628,-0.0053735836,-0.36590832,-0.9830913,0.03964256,0.12363436,-2.2698314,-1.0079553,-0.48827454,-0.6363233,1.640424,0.8980809,0.4672981,-0.3783594,1.0695012,4.219171,14.340899,-0.112554014,-7.673862,-2.6971838,4.9265633,1.8765774,43.484665,0.0017665925,-0.0041487785,0.3487951,0.017626666,-0.120487034,-0.7603327,16.89112,-48.010048,116.69602,0.19164602,0.13853192,0.016470026,-0.6398336,-0.94405735,-0.93177235,-4.448985,18.13753,150.00156,-0.26723564,0.0960619,0.039926834,0.4077278,0.6453929,-1.4682827,7.881395,-58.18728,150.00156,-1.4771819,-2.6061428,136.10503,-1.0,-1.0,1.0,1.0,1.0,-0.9999995,-1.0,-1.0,0.0,0.0,-1.0,-1.0,1.0,1.0,1.0,-1.0,-1.0,-1.0
0,87,128,128.0,-0.1221356275243659,0.34672913,0.92431724,0.12550917,0.08968169,0.3490592,-0.07817394,0.29462737,0.9524093,-0.021674255,-0.38012812,-1.0021505,0.19775872,0.24053583,-1.755456,-0.9993595,-0.45943078,-0.6365353,1.6247066,0.8927567,0.4781678,-0.37624717,1.1582444,4.3645573,14.496338,-0.09976788,-8.0377445,-2.6254354,5.913757,0.28587487,45.234386,0.0017343211,-0.0041977293,0.34674877,0.01915908,-0.1223542,-0.7726345,17.65741,-48.943653,120.35514,0.18848322,0.13649927,0.012861723,-0.72712076,-0.9028037,-0.99082917,-4.0198236,16.833813,154.54982,-0.26901126,0.09641102,0.036991782,0.5177376,0.6572582,-1.4819989,7.4072475,-56.929726,154.54982,-1.4820821,-2.5324652,131.41412,-1.0,-1.0,1.0,1.0,1.0,-1.0,-1.0,-1.0,0.0,0.0,-1.0,-1.0,1.0,1.0,1.0,-1.0,-1.0,-1.0
0,88,128,128.0,-0.1243935445568814,0.34471408,0.9242041,0.13295867,0.08222394,0.34843653,-0.0589899,0.30293778,0.9511829,-0.038744327,-0.3942949,-1.0198914,0.32611185,0.34607068,-1.3500661,-0.9906373,-0.42914793,-0.63986474,1.6102217,0.8876274,0.4914308,-0.37699026,1.2502928,4.3290195,16.016436,-3.8708375,-6.01039,-2.4942625,7.447583,-0.97762024,46.78267,0.0017020479,-0.004246679,0.3446632,0.020898717,-0.12417127,-0.7848,18.527302,-49.85221,124.08242,0.18512963,0.13464008,0.009113266,-0.8104197,-0.8618712,-1.0461749,-3.6495435,15.661948,158.85493,-0.27068287,0.09658252,0.033963416,0.6136429,0.6724742,-1.4955359,7.0284486,-55.81762,158.85493,-1.4861903,-2.4692407,127.24906,-1.0,-1.0,1.0,1.0,1.0,-1.0,-1.0,-1.0,0.0,0.0,-1.0,-1.0,1.0,1.0,1.0,-1.0,-1.0,-1.0
0,89,128,128.0,-0.1264173750490285,0.34272677,0.92428005,0.14040421,0.07372848,0.3472134,-0.038825,0.3107514,0.9496979,-0.08231892,-0.39282012,-1.0093596,-13.82888,9.019012,14.711486,-0.9820523,-0.39564243,-0.65135926,1.6004981,0.88277227,0.5077449,-0.3800054,1.3453206,4.2537446,17.421547,-7.466697,-3.759415,-2.3625767,8.817181,-2.0019553,48.23237,0.0016991565,-0.004323837,0.34269035,0.03245521,-0.13372034,-0.7490989,19.10381,-49.607365,124.793015,0.18211558,0.13323383,0.0064429115,-0.7021019,-0.71260864,-0.71702546,-2.5319538,10.592934,144.52718,-0.27212343,0.09639033,0.03068948,0.76700413,0.65136385,-1.5954382,6.0904193,-51.045483,144.52718,-1.4886956,-2.1716905,109.61925,-1.0,-1.0,1.0,1.0,1.0,-1.0,-1.0,-1.0,0.0,0.0,-1.0,-1.0,1.0,1.0,1.0,-0.99999994,-1.0,-1.0
0,90,128,128.0,-0.12698247295245,0.3408335,0.9244863,0.14780451,0.0643892,0.34544608,-0.0169649,0.31777745,0.94801354,-0.12852335,-0.38991582,-0.9940052,-11.674334,7.8498282,13.893916,-0.97363085,-0.35971716,-0.6691465,1.5949867,0.87817127,0.5265181,-0.3848659,1.4431742,4.165746,18.443909,-10.184577,-1.8008698,-2.2397647,9.914072,-2.8277776,49.60993,0.001719569,-0.004428303,0.34080464,0.04326588,-0.14517492,-0.7107246,19.255344,-49.43925,125.596466,0.17935546,0.13211311,0.0046305084,-0.57767963,-0.5698169,-0.38558012,-1.5681335,5.505403,130.19037,-0.27345014,0.09574584,0.027165677,0.9200909,0.6276307,-1.6974918,5.3008227,-46.47862,130.19037,-1.4896284,-1.8791813,92.38133,-1.0,-1.0,1.0,1.0,1.0,-0.99999994,-1.0,-1.0,0.0,0.0,-1.0,-1.0,1.0,1.0,1.0,-0.99999857,-1.0,-1.0
0,91,128,128.0,-0.1309817838872933,0.33899203,0.9247738,0.15512244,0.054367602,0.343183,0.005892104,0.32422605,0.9459613,-0.17218456,-0.38867232,-0.97932684,-9.848333,6.8412533,13.070497,-0.965397,-0.32208923,-0.6915976,1.5930959,0.87380826,0.54724663,-0.39120242,1.5437183,4.0663424,19.132666,-12.15167,-0.13768809,-2.1244063,10.778585,-3.4822335,50.92441,0.0017559084,-0.004555435,0.33896956,0.052507363,-0.15655759,-0.6792336,19.456781,-49.38704,126.73875,0.17674604,0.131211,0.0033616035,-0.47406802,-0.45280153,-0.11844667,-0.8553775,1.3136641,119.00803,-0.27461216,0.09468728,0.023409128,1.0614728,0.6082263,-1.7857057,4.7303514,-42.71531,119.00803,-1.4891499,-1.6339774,78.20925,-1.0,-1.0,1.0,1.0,1.0,-0.99999857,-1.0,-1.0,0.0,0.0,-1.0,-1.0,1.0,1.0,1.0,-0.9999726,-1.0,-1.0
0,92,128,128.0,-0.1332473170595373,0.3371906,0.9251023,0.16232492,0.04379873,0.34046742,0.029476829,0.33016106,0.9434643,-0.21363825,-0.38888693,-0.96520597,-8.332587,5.985253,12.300873,-0.95737207,-0.28337458,-0.7173361,1.5942479,0.8696693,0.5695,-0.3986969,1.6468353,3.9571006,19.539083,-13.492073,1.245443,-2.0156004,11.444063,-3.9895215,52.184044,0.0018060829,-0.0047047287,0.33717355,0.06068266,-0.16779144,-0.6537005,19.754383,-49.394543,128.10071,0.17427094,0.13051015,0.0025262241,-0.3872342,-0.35806298,0.095918454,-0.31473437,-2.1371174,110.37219,-0.2755267,0.09324889,0.019418996,1.193106,0.5924956,-1.8618956,4.3204417,-39.5422,110.37219,-1.4873444,-1.4291881,66.42995,-1.0,-1.0,1.0,1.0,1.0,-0.9999726,-1.0,-1.0,0.0,0.0,-1.0,-1.0,1.0,1.0,1.0,-0.9998833,-1.0,-1.0
0,93,128,128.0,-0.1353146905541063,0.33541927,0.92543846,0.16938287,0.03279614,0.33733892,0.053561248,0.33563563,0.9404679,-0.2532164,-0.39035523,-0.9514749,-7.0908136,5.265909,11.613832,-0.94957405,-0.24408773,-0.7452263,1.597909,0.8657419,0.59290904,-0.40707687,1.7524229,3.7961404,19.592634,-14.19122,2.1729615,-1.8342334,12.489563,-5.7306333,52.777664,0.0018685577,-0.0048758015,0.33540675,0.06805751,-0.17889749,-0.63322365,20.120003,-49.446323,129.64168,0.17192133,0.12999304,0.0020328362,-0.31300417,-0.28229624,0.26620594,0.10866365,-4.9628143,103.81738,-0.276114,0.09148145,0.015198618,1.3163942,0.5799165,-1.9273047,4.032345,-36.8526,103.81738,-1.4843347,-1.2585998,56.635868,-1.0,-1.0,1.0,1.0,1.0,-0.9998833,-1.0,-1.0,0.0,0.0,-1.0,-1.0,1.0,1.0,1.0,-0.99989444,-1.0,-1.0
0,94,128,128.0,-0.1371189089169653,0.33385852,0.92580163,0.17661844,0.022037212,0.33348402,0.07695687,0.34169555,0.93665457,-0.28411156,-0.39631346,-0.914142,14.365649,-5.119412,80.09254,-0.94232726,-0.20560168,-0.7734691,1.6021577,0.86256164,0.62099224,-0.42579156,1.8560628,3.4604633,18.859743,-14.055018,2.112465,-1.3703705,15.37708,-12.593692,51.053436,0.001955279,-0.0050707897,0.3337119,0.08071114,-0.19013816,-0.5943681,20.200499,-49.04441,129.90239,0.16967712,0.1296474,0.0018242928,-0.25658247,-0.21753892,0.39797884,0.32102695,-6.001103,93.4674,-0.2762921,0.08957107,0.0109565845,1.4384106,0.6270385,-1.8934759,4.1166043,-36.188427,93.4674,-1.4804744,-1.2056658,53.631927,-1.0,-1.0,1.0,1.0,1.0,-0.99989444,-1.0,-1.0,0.0,0.0,-1.0,-1.0,1.0,1.0,0.99999964,-0.91695184,-0.9981241,-1.0
0,95,128,128.0,-0.1388685579526414,0.33256906,0.9262247,0.18404531,0.011909926,0.32877535,0.098934926,0.3487395,0.9319832,-0.2795057,-0.41661477,-0.77140564,11.803185,-2.2023246,70.18904,-0.9356937,-0.16873953,-0.80145806,1.6064819,0.86017025,0.6536044,-0.4559401,1.9571652,3.182342,17.980207,-13.932175,2.2381315,-1.0414076,17.039494,-17.194878,50.1408,0.0021540585,-0.0053113354,0.33244774,0.11693382,-0.20413135,-0.45972368,18.944458,-46.669434,123.83831,0.1673885,0.12955867,0.0019584745,-0.24671121,-0.13842914,0.5000143,-0.009892056,-1.8177329,60.282413,-0.27590373,0.08857596,0.008275471,1.56326,0.90850246,-1.464545,5.511875,-42.375015,60.282413,-1.477691,-1.5304334,72.134995,-1.0,-1.0,1.0,1.0,0.99999964,-0.91695184,-0.9981241,-1.0,0.0,0.0,-1.0,-1.0,1.0,1.0,0.99999887,-0.89843005,-0.99893916,-1.0
0,96,128,128.0,-0.140576272838531,0.3315021,0.92672163,0.19150679,0.0024823626,0.32327393,0.11920632,0.3565303,0.9266477,-0.2763947,-0.43185484,-0.6493547,8.883765,0.0468307,60.19171,-0.9295629,-0.13374834,-0.82917994,1.6111927,0.8583237,0.6884497,-0.49326825,2.0568547,2.956816,16.996983,-13.781493,2.4887145,-0.8213313,17.647814,-19.838287,49.58427,0.0023989708,-0.0055857026,0.33140323,0.1453057,-0.21856883,-0.34574202,18.954195,-45.159176,119.75232,0.16511431,0.12975003,0.0023422083,-0.23851247,-0.062491056,0.59001195,-0.12292645,0.4601032,31.942438,-0.27501965,0.08814757,0.0064285905,1.6551249,1.1368805,-1.1010973,6.7537403,-47.00604,31.942438,-1.4754561,-1.7740414,84.50421,-1.0,-1.0,1.0,1.0,0.99999887,-0.89843005,-0.99893916,-1.0,0.0,0.0,-1.0,-1.0,1.0,1.0,0.999963,0.013197937,-0.9999853,-1.0
0,97,128,128.0,-0.1423836395618122,0.3306111,0.9272952,0.19894156,-0.006274522,0.31702766,0.1377736,0.3649588,0.9207733,-0.27491438,-0.44354656,-0.5462168,5.3558993,3.1891701,47.353878,-0.92383736,-0.10060159,-0.85660076,1.6164502,0.8568297,0.7240598,-0.5346399,2.1555946,2.7759297,16.141169,-13.624302,2.7751446,-0.68502444,17.838467,-21.29494,49.149582,0.0026746748,-0.0058899764,0.33053538,0.165474,-0.2323586,-0.25242305,19.133003,-44.168133,116.54052,0.16288388,0.13020271,0.0029475952,-0.22904171,0.008515424,0.667599,-0.12160423,1.7903355,8.11245,-0.27370638,0.0882502,0.0052641574,1.718624,1.3220685,-0.7973998,7.8140836,-50.49607,8.11245,-1.473744,-1.9572773,93.15869,-1.0,-1.0,1.0,1.0,0.999963,0.013197937,-0.9999853,-1.0,0.0,0.0,-0.99999636,-1.0,1.0,1.0,0.999997,0.9857675,-1.0,-1.0
0,98,128,128.0,-0.1442445494718725,0.32985264,0.9279358,0.20637812,-0.014484508,0.31005394,0.15486038,0.37401438,0.91440225,-0.2767667,-0.44978184,-0.4672084,2.375911,5.7050314,36.0433,-0.91843605,-0.06900493,-0.8836768,1.622273,0.85554385,0.75981367,-0.578003,2.2533693,2.6313367,15.450803,-13.433006,3.0471425,-0.609918,17.823116,-21.88432,48.59797,0.0029602244,-0.0062138466,0.32979682,0.17612557,-0.24322209,-0.18038063,19.46414,-43.7012,114.31456,0.16072182,0.13088028,0.0037496847,-0.2137993,0.0685123,0.73525095,-0.066133045,2.5349195,-11.608255,-0.27206036,0.08880173,0.0046484414,1.7539101,1.4627061,-0.54951656,8.65788,-53.063942,-11.608255,-1.4724821,-2.0894547,99.11968,-0.99999636,-1.0,1.0,1.0,0.999997,0.9857675,-1.0,-1.0,0.0,0.0,-0.9999972,-1.0,1.0,1.0,0.9999771,0.9981666,-1.0,-1.0
0,99,128,128.0,-0.1461129514008196,0.3291927,0.9286244,0.21381114,-0.0222272,0.3024028,0.17060192,0.38364515,0.9075855,-0.28162962,-0.45174205,-0.4091621,1.0594994,5.981437,30.096424,-0.913291,-0.03880593,-0.9102585,1.6286272,0.8543594,0.7950536,-0.621568,2.3498726,2.5185025,14.747786,-13.129962,3.3028445,-0.5811224,17.355513,-21.554094,47.87988,0.0032409853,-0.006550004,0.3291507,0.17886743,-0.25119212,-0.12673458,19.92054,-43.663258,112.89941,0.15863216,0.13175419,0.0047131814,-0.19323651,0.11693655,0.79241925,0.013741431,2.866602,-27.483969,-0.27020016,0.08969003,0.0044631483,1.7597728,1.5619918,-0.35267025,9.279179,-54.860085,-27.483969,-1.4715136,-2.1770697,102.95733,-0.9999972,-1.0,1.0,1.0,0.9999771,0.9981666,-1.0,-1.0,0.0,0.0,-0.97191143,-1.0,1.0,1.0,0.9998984,0.99926597,-1.0,-1.0
0,100,128,128.0,-0.1479868161194129,0.32860577,0.92933846,0.22119585,-0.029529177,0.29416066,0.1850286,0.39374912,0.90040326,-0.28684247,-0.45379293,-0.3617464,0.2246836,5.9378576,25.219563,-0.90834516,-0.010008307,-0.9361246,1.6354613,0.8531978,0.8290442,-0.6638127,2.444794,2.4309382,14.052775,-12.71862,3.5247,-0.5850069,16.598753,-20.60991,47.021477,0.0035142663,-0.006897959,0.32857528,0.17799099,-0.25836578,-0.08599852,20.388865,-43.936924,112.004364,0.15661891,0.13280886,0.0057928166,-0.17023423,0.1577539,0.8347937,0.09660558,3.0384893,-39.630558,-0.2682142,0.0908671,0.0046025417,1.7397982,1.6383654,-0.20069684,9.791362,-56.358734,-39.630558,-1.4707779,-2.2441173,105.97168,-0.97191143,-1.0,1.0,1.0,0.9998984,0.99926597,-1.0,-1.0,0.0,0.0,0.6917844,-1.0,1.0,1.0,0.9998248,0.99624515,-1.0,-1.0
0,101,128,128.0,-0.1498884664879867,0.3280719,0.9300564,0.22849905,-0.036425058,0.28540587,0.19819343,0.40423492,0.89292413,-0.2918984,-0.4564188,-0.32308185,-0.27970466,5.639228,21.517836,-0.903539,0.01742444,-0.96109194,1.6427165,0.8520081,0.8613627,-0.703811,2.537943,2.3771951,13.382713,-12.231835,3.7220361,-0.6073536,15.720718,-19.386559,46.15091,0.003776135,-0.007255389,0.32804966,0.17465489,-0.264872,-0.055907395,20.895115,-44.499783,111.60511,0.15469895,0.13402161,0.0069537507,-0.14440882,0.19060318,0.86263347,0.1670094,3.169522,-48.473103,-0.2661668,0.09230325,0.0049770493,1.697706,1.6982186,-0.08705416,10.236765,-57.72055,-48.473103,-1.4702777,-2.3018286,108.66335,0.6917844,-1.0,1.0,1.0,0.9998248,0.99624515,-1.0,-1.0,0.0,0.0,0.9518279,-1.0,1.0,0.99999994,0.9999383,0.9338247,-1.0,-1.0
0,102,128,128.0,-0.1517956512433853,0.32757592,0.93075716,0.23569682,-0.042942084,0.2762138,0.210152,0.4150263,0.8852058,-0.29620978,-0.4600205,-0.2905941,-0.2139449,5.271414,18.777094,-0.89882666,0.043520126,-0.9849729,1.650299,0.85076,0.891926,-0.741372,2.6295083,2.349246,12.628196,-11.344762,3.568023,-0.6496245,14.896804,-18.276987,45.478287,0.0040255096,-0.007621949,0.32756028,0.17022601,-0.27134946,-0.033455428,21.43058,-45.28888,111.55237,0.15288195,0.13537765,0.008169862,-0.11711157,0.2177863,0.8782102,0.23560932,3.1958053,-54.794693,-0.26409397,0.09396692,0.00552537,1.6444131,1.7441999,-0.0014841189,10.605988,-58.904472,-54.794693,-1.4699936,-2.348471,110.84429,0.9518279,-1.0,1.0,0.99999994,0.9999383,0.9338247,-1.0,-1.0,0.0,0.0,0.9962149,-1.0,1.0,0.9999999,0.99992824,0.5467907,-1.0,-1.0
0,103,128,128.0,-0.1537642581573928,0.3270804,0.9313585,0.24287328,-0.04908043,0.26678637,0.2210258,0.4262098,0.8772074,-0.29915497,-0.46496108,-0.2658353,0.111081064,3.524825,8.855168,-0.89409584,0.067597464,-1.0053892,1.6559442,0.8493786,0.92092615,-0.7769885,2.719986,2.3781078,11.472153,-9.105391,2.0969641,-0.7301487,14.116305,-17.348629,45.019817,0.004264423,-0.007994261,0.32708913,0.1660302,-0.27640635,-0.020067645,22.00067,-46.35225,111.97914,0.1511736,0.13686913,0.009351104,-0.09069844,0.2439292,0.8541694,0.33134377,2.9340854,-57.864037,-0.26198924,0.09582455,0.006221916,1.5957981,1.7775662,0.07166675,10.8591795,-59.761032,-57.864037,-1.4698787,-2.3745759,111.91803,0.9962149,-1.0,1.0,0.9999999,0.99992824,0.5467907,-1.0,-1.0,0.0,0.0,0.99996895,-1.0,1.0,0.9999995,0.99996096,-0.77930415,-1.0,-1.0
0,104,128,128.0,-0.1556670139487481,0.32656363,0.93183035,0.24998412,-0.054813687,0.257285,0.23080117,0.43767518,0.8690059,-0.3011847,-0.4730006,-0.25656408,0.31662983,1.6576931,10.491519,-0.8893201,0.089320086,-1.0215477,1.6588979,0.8478341,0.947648,-0.809797,2.8093722,2.394449,10.270965,-7.080907,0.8732304,-0.8121088,12.625705,-15.483425,44.39167,0.004492902,-0.008344367,0.3265752,0.16232263,-0.27387813,-0.025605807,22.71838,-47.952023,113.584785,0.1495509,0.13858634,0.010063436,-0.072218694,0.2884217,0.70718366,0.54592,1.9671464,-53.12398,-0.2598757,0.09782232,0.0070391656,1.5532821,1.8101991,0.1428107,10.98857,-60.122517,-53.12398,-1.4696043,-2.3643882,110.84198,0.99996895,-1.0,1.0,0.9999995,0.99996096,-0.77930415,-1.0,-1.0,0.0,0.0,0.99979025,-1.0,1.0,1.0,0.9999418,-0.06254604,-1.0,-1.0
0,105,128,128.0,-0.1576323046649678,0.32602242,0.93217385,0.25699374,-0.060174517,0.2477602,0.23954265,0.44930393,0.8606656,-0.30226037,-0.4851745,-0.2437767,-0.024359837,2.770295,7.884559,-0.8845343,0.108844936,-1.03379,1.6594182,0.8461458,0.9719217,-0.8395298,2.8977768,2.3884945,9.269908,-5.1823955,-0.34033924,-0.87417936,11.662206,-14.262681,44.028767,0.004715442,-0.0086871665,0.32603523,0.15980186,-0.2730752,-0.033580367,23.31166,-49.72785,115.37668,0.14807162,0.14045712,0.010501943,-0.04424936,0.32292214,0.5696433,0.6354209,2.1080163,-46.745358,-0.25783852,0.10005679,0.007871909,1.4885823,1.8741362,0.1782918,11.510485,-61.791893,-46.745358,-1.4695174,-2.4326577,114.09926,0.99979025,-1.0,1.0,1.0,0.9999418,-0.06254604,-1.0,-1.0,0.0,0.0,0.99981046,-1.0,1.0,1.0,0.9998659,0.47974974,-1.0,-1.0
0,106,128,128.0,-0.1596380360475632,0.32545453,0.9323788,0.26396847,-0.065273084,0.23818006,0.24747142,0.46114042,0.8521193,-0.30361173,-0.49531364,-0.23589052,-0.34951946,3.637884,5.8861666,-0.8797798,0.12652206,-1.0423318,1.6575205,0.8443509,0.9946576,-0.86727595,2.985632,2.3636127,8.419232,-3.3746018,-1.5482196,-0.9188744,11.0838785,-13.490548,43.836082,0.00493259,-0.009022995,0.3254684,0.15838383,-0.2731195,-0.042443328,24.118896,-51.640785,117.348236,0.14674601,0.14245445,0.010682129,-0.011064545,0.34981608,0.43567246,0.7402097,1.8391289,-40.92294,-0.2558011,0.10240769,0.008774833,1.4438368,1.9122077,0.21910277,11.806488,-62.737988,-40.92294,-1.4694726,-2.4665494,115.323586,0.99981046,-1.0,1.0,1.0,0.9998659,0.47974974,-1.0,-1.0,0.0,0.0,0.9998939,-1.0,1.0,1.0,0.9849412,0.94982994,-1.0,-1.0
0,107,128,128.0,-0.1616553985646258,0.3248582,0.932435,0.27095857,-0.07019857,0.228514,0.25475392,0.47321713,0.8433066,-0.30531555,-0.5039876,-0.23158854,-0.64653534,4.4049635,4.26709,-0.8750917,0.14261805,-1.0473218,1.6532043,0.8424823,1.0165551,-0.89383477,3.0732224,2.3224664,7.685073,-1.6254051,-2.761691,-0.9479727,10.820586,-13.0710335,43.76041,0.005145497,-0.009352544,0.3248728,0.15739432,-0.2737208,-0.05237841,24.83808,-53.620728,119.297516,0.14556734,0.14456719,0.010607826,0.025018731,0.37137777,0.30412135,0.86170655,1.1938277,-35.44517,-0.25375813,0.1047867,0.009751501,1.4146825,1.9298177,0.26300856,11.919704,-63.07451,-35.44517,-1.4692743,-2.4713132,114.78204,0.9998939,-1.0,1.0,1.0,0.9849412,0.94982994,-1.0,-1.0,0.0,0.0,0.99957085,-1.0,1.0,1.0,0.93023694,0.9839489,-1.0,-1.0
0,108,128,128.0,-0.1636774464030975,0.3242318,0.9323345,0.27798587,-0.075009085,0.21874626,0.26148957,0.4855336,0.8341944,-0.30740237,-0.5114549,-0.230038,-0.7617319,4.5280843,3.7145038,-0.8704977,0.15729278,-1.0488632,1.6464903,0.8405655,1.0379839,-0.9195923,3.160698,2.2698367,6.995096,0.07809154,-3.948133,-0.96716696,10.614234,-12.688735,43.719692,0.0053550024,-0.009676237,0.32424718,0.15673614,-0.27470833,-0.06310065,25.483046,-55.65259,121.23427,0.1445283,0.14679018,0.010281235,0.062019657,0.38992798,0.17389783,1.0018917,0.20162976,-30.218525,-0.25170043,0.107115984,0.01080491,1.3982829,1.9294815,0.30960464,11.875396,-62.87463,-30.218525,-1.4687339,-2.4469726,112.660355,0.99957085,-1.0,1.0,1.0,0.93023694,0.9839489,-1.0,-1.0,0.0,0.0,0.9893971,-1.0,1.0,1.0,0.90247583,0.99267167,-1.0,-1.0
0,109,128,128.0,-0.1656947390912319,0.323574,0.9320731,0.28504792,-0.07973585,0.20887697,0.26772368,0.4980594,0.8247793,-0.30955625,-0.5190523,-0.22910273,-0.83660275,4.6003137,3.3480215,-0.8660188,0.17061524,-1.0470252,1.6374235,0.83861977,1.0590385,-0.9446031,3.2481182,2.2076223,6.3301377,1.7575849,-5.116431,-0.9770152,10.44545,-12.323707,43.704247,0.005562045,-0.009994764,0.32358998,0.15636508,-0.27612835,-0.07459067,26.03594,-57.73779,123.18567,0.14362526,0.14911568,0.009705315,0.0990206,0.40641886,0.04515796,1.1388512,-0.8280483,-24.835436,-0.24963556,0.109374695,0.011914954,1.3854358,1.9250883,0.35221404,11.822204,-62.587852,-24.835436,-1.4677906,-2.4175508,110.32213,0.9893971,-1.0,1.0,1.0,0.90247583,0.99267167,-1.0,-1.0,0.0,0.0,0.6247459,-1.0,1.0,1.0,0.9859873,0.9913611,-1.0,-1.0
0,110,128,128.0,-0.1677308004750993,0.3228837,0.931647,0.29214093,-0.08440321,0.19890608,0.2734886,0.5107665,0.81505924,-0.31171313,-0.5268792,-0.22841328,-0.884584,4.669224,3.080104,-0.8616762,0.18262164,-1.0418386,1.6260328,0.83666396,1.0797869,-0.9688959,3.3355296,2.1339362,5.6765003,3.4301412,-6.273699,-0.9774397,10.307156,-11.97032,43.710064,0.0057672057,-0.01030855,0.32290015,0.15630181,-0.27791536,-0.0865687,26.56723,-59.88112,125.193924,0.14285573,0.15153709,0.008883049,0.13499111,0.42208344,-0.08269566,1.2775987,-1.8944488,-19.301712,-0.24756014,0.11154659,0.013070887,1.3745421,1.9182699,0.391527,11.770755,-62.23189,-19.301712,-1.4664096,-2.3838558,107.800896,0.6247459,-1.0,1.0,1.0,0.9859873,0.9913611,-1.0,-1.0,0.0,0.0,-0.8671559,-1.0,1.0,1.0,0.99956375,0.998911,-1.0,-1.0
0,111,128,128.0,-0.1697667660259585,0.3221601,0.93105143,0.29926354,-0.08903088,0.18883343,0.27880892,0.52363425,0.80502963,-0.313826,-0.53494126,-0.22776929,-0.91248155,4.8385983,2.82424,-0.85750294,0.19332471,-1.0333037,1.6123345,0.83471453,1.1002961,-0.99250513,3.4229753,2.0390615,5.0242667,5.1094327,-7.425922,-0.9707383,10.205325,-11.639144,43.737846,0.005970923,-0.010617943,0.32217693,0.15645811,-0.28000724,-0.09889894,27.076374,-62.07701,127.25785,0.14221682,0.15404792,0.007817079,0.1693525,0.43731567,-0.20995215,1.4205148,-2.9918783,-13.6526785,-0.2454706,0.1136195,0.014264342,1.3645235,1.9099609,0.4283978,11.728482,-61.81688,-13.6526785,-1.4645656,-2.3469565,105.125404,-0.8671559,-1.0,1.0,1.0,0.99956375,0.998911,-1.0,-1.0,0.0,0.0,-0.9930827,-1.0,1.0,1.0,0.999993,0.99980295,-1.0,-1.0
0,112,128,128.0,-0.1717983186104756,0.32140267,0.9302826,0.306413,-0.093632974,0.17865685,0.28369725,0.536644,0.79468805,-0.31585926,-0.543051,-0.22713298,-0.9108076,4.865709,2.7826095,-0.8535222,0.20270552,-1.0213764,1.5963215,0.83278567,1.1206207,-1.0154544,3.5104895,1.941574,4.3525605,6.8255806,-8.589872,-0.9570175,10.1221285,-11.30989,43.780666,0.0061735283,-0.010923224,0.32141966,0.15676625,-0.28235596,-0.11147758,27.56193,-64.320625,129.37779,0.14170605,0.15663834,0.0065106438,0.20196335,0.45129624,-0.33656546,1.5636148,-4.083467,-7.95423,-0.2433629,0.11558181,0.0154896965,1.3547987,1.9002681,0.46383482,11.702846,-61.364845,-7.95423,-1.4622431,-2.308603,102.40113,-0.9930827,-1.0,1.0,1.0,0.999993,0.99980295,-1.0,-1.0,0.0,0.0,-0.9992555,-1.0,1.0,1.0,0.9999995,0.9999255,-1.0,-1.0
0,113,128,128.0,-0.1738303228879963,0.32060865,0.9293367,0.31357855,-0.09824689,0.16837259,0.2882303,0.54974675,0.7840292,-0.31775147,-0.55146474,-0.22611207,-0.9035171,4.880781,2.7798743,-0.84973425,0.21078344,-1.0060046,1.5779783,0.83088577,1.1408602,-1.0377158,3.5984564,1.8469017,3.7360828,8.547483,-9.753459,-0.9429432,10.136319,-10.945877,44.2733,0.006374986,-0.011224549,0.32062826,0.15711349,-0.28488535,-0.12413715,28.0387,-66.59981,131.54039,0.14131583,0.1593129,0.0049632057,0.23113008,0.46795377,-0.4634294,1.7300439,-5.285942,-2.1479452,-0.24123439,0.117427,0.016740108,1.3441614,1.8898472,0.497797,11.675413,-60.801865,-2.1479452,-1.459409,-2.263,99.285675,-0.9992555,-1.0,1.0,1.0,0.9999995,0.9999255,-1.0,-1.0,0.0,0.0,-0.99977857,-1.0,1.0,1.0,0.9999999,0.9999303,-1.0,-1.0
0,114,128,128.0,-0.1757143340957757,0.31981298,0.9282796,0.32057002,-0.10295615,0.15789856,0.29235196,0.5624812,0.77339846,-0.32011625,-0.5603516,-0.22626512,-1.2349294,4.806562,1.8612825,-0.84622437,0.21874176,-0.9903334,1.560351,0.82904863,1.1607374,-1.0586044,3.6874895,1.6462057,4.4763346,6.4057612,-7.1794767,-0.8874826,9.643547,-9.80443,44.74041,0.006576664,-0.011526615,0.31979665,0.15796502,-0.2893136,-0.1386433,28.513079,-68.97605,133.88661,0.14104511,0.16206,0.0031773946,0.25883326,0.48214307,-0.5878361,1.9350286,-6.9059706,4.6887827,-0.23907603,0.1190964,0.017949874,1.3331583,1.8597816,0.5128147,11.497676,-59.676647,4.6887827,-1.4559573,-2.1862917,94.41735,-0.99977857,-1.0,1.0,1.0,0.9999999,0.9999303,-1.0,-1.0,0.0,0.0,-0.99934226,-1.0,1.0,1.0,0.99999976,0.99994063,-1.0,-1.0
0,115,128,128.0,-0.1775869446666996,0.31901288,0.9272394,0.32706273,-0.10778932,0.14710034,0.29611602,0.5748275,0.76281625,-0.321445,-0.56958264,-0.20383765,-0.5830735,4.6106515,15.172452,-0.8431246,0.2286516,-0.98021525,1.549121,0.8273308,1.1794631,-1.0770063,3.7774367,1.4608943,5.3971148,3.8155117,-4.177699,-0.83198476,9.098305,-8.626548,45.21255,0.006780558,-0.011905013,0.31900254,0.15844956,-0.31937715,-0.12943515,28.428654,-70.568886,134.54771,0.1409927,0.16448942,0.002085654,0.31874096,0.37990296,-0.41165948,1.502145,-5.1132154,-1.8760899,-0.23680414,0.12066188,0.018945778,1.3433205,1.8090101,0.4416774,11.894485,-60.818977,-1.8760899,-1.4528704,-2.2799678,99.75228,-0.99934226,-1.0,1.0,1.0,0.99999976,0.99994063,-1.0,-1.0,0.0,0.0,-0.9999391,-1.0,1.0,1.0,0.99999845,0.99592006,-1.0,-1.0
0,116,128,128.0,-0.1794878318406468,0.31824178,0.9261888,0.33311528,-0.1127222,0.13602273,0.29942858,0.58640057,0.7526466,-0.32127795,-0.5792835,-0.17929716,-0.34502956,4.342415,13.22153,-0.840353,0.24016072,-0.9746124,1.5430629,0.82571435,1.1971996,-1.0932276,3.8683608,1.3167675,6.073481,1.8918679,-2.0085192,-0.78583306,8.654253,-7.621132,45.7159,0.006984017,-0.012351461,0.3182368,0.15873082,-0.3518588,-0.118787006,28.549765,-71.94339,134.79562,0.14115411,0.16654684,0.0015793354,0.38208276,0.2607994,-0.21078646,0.9163909,-2.7355974,-9.513063,-0.23440996,0.122344844,0.019747568,1.3537791,1.7580252,0.3629975,12.362948,-62.58565,-9.513063,-1.4510227,-2.4063146,107.2491,-0.9999391,-1.0,1.0,1.0,0.99999845,0.99592006,-1.0,-1.0,0.0,0.0,-0.9982763,-1.0,1.0,1.0,0.99999726,0.9939866,-1.0,-1.0
0,117,128,128.0,-0.1814094066595094,0.31747705,0.9250967,0.33879495,-0.11773636,0.12470857,0.30233806,0.59747905,0.74270487,-0.32005823,-0.5894336,-0.15911634,-0.19070208,4.145934,11.28761,-0.83783716,0.25280845,-0.9722774,1.540641,0.82418317,1.2141368,-1.1075821,3.9603152,1.2035004,6.5433893,0.5268096,-0.5121742,-0.7462714,8.296111,-6.753711,46.241978,0.007187376,-0.012842335,0.31747612,0.15920198,-0.37960517,-0.11267319,28.785444,-73.455154,135.30103,0.14151779,0.1683549,0.001381146,0.44592297,0.16182794,-0.06251437,0.4147461,-0.9553856,-14.741786,-0.23193449,0.12414423,0.020409957,1.3587307,1.7120948,0.29838604,12.688576,-64.02781,-14.741786,-1.4501824,-2.5100045,113.07795,-0.9982763,-1.0,1.0,1.0,0.99999726,0.9939866,-1.0,-1.0,0.0,0.0,-0.9836212,-1.0,1.0,1.0,0.9999651,0.9811141,-1.0,-1.0
0,118,128,128.0,-0.1833449588537846,0.316711,0.9239382,0.3441535,-0.122818336,0.113190934,0.30486476,0.6081558,0.73294204,-0.31796086,-0.5999381,-0.14249788,-0.062410805,3.9937952,9.782436,-0.83552384,0.2662236,-0.97220993,1.5406705,0.8227262,1.2304251,-1.1203085,4.053338,1.1130679,6.8473735,-0.39305776,0.4654852,-0.7113066,8.003062,-5.9889154,46.782963,0.007390717,-0.013370256,0.31671327,0.1595871,-0.40362003,-0.11008273,28.978104,-75.13992,136.08348,0.14207798,0.16996117,0.0014004093,0.50874597,0.07963014,0.043256756,-0.007838779,0.38013437,-18.011414,-0.22940236,0.12603818,0.020953417,1.3593051,1.6701742,0.2449296,12.890568,-65.19043,-18.011414,-1.4501866,-2.5939474,117.588844,-0.9836212,-1.0,1.0,1.0,0.9999651,0.9811141,-1.0,-1.0,0.0,0.0,-0.914304,-1.0,1.0,1.0,0.9997008,0.9731798,-1.0,-1.0
0,119,128,128.0,-0.1852891137069343,0.31593794,0.9226934,0.34923103,-0.12795813,0.10149561,0.30702445,0.61849725,0.72332364,-0.31508368,-0.610744,-0.12864059,0.042755075,3.8923764,8.593997,-0.83337307,0.280109,-0.97361,1.5422319,0.82133585,1.2461852,-1.1315919,4.1474543,1.0403602,7.016516,-0.94568264,1.0355542,-0.6795899,7.767784,-5.3094807,47.335182,0.007594045,-0.013929753,0.31594273,0.1598788,-0.4247434,-0.11023319,29.124054,-76.97649,137.09303,0.14282814,0.17140026,0.0015689812,0.5696704,0.010674169,0.11565876,-0.36260906,1.3938614,-19.728651,-0.22683254,0.12800975,0.021392623,1.3563117,1.6318858,0.20000377,12.996535,-66.156876,-19.728651,-1.4509107,-2.6627934,121.15093,-0.914304,-1.0,1.0,1.0,0.9997008,0.9731798,-1.0,-1.0,0.0,0.0,-0.73986226,-1.0,1.0,1.0,0.9989509,0.9438623,-1.0,-1.0
0,120,128,128.0,-0.1872493369628757,0.31515273,0.92134273,0.35406604,-0.13314764,0.089646325,0.30883247,0.62856704,0.71381086,-0.31151575,-0.62176657,-0.117054276,0.14155143,3.799747,7.5286255,-0.83134997,0.29421198,-0.9757555,1.5446663,0.8200055,1.2615292,-1.1415961,4.242683,0.9847597,7.0739317,-1.154813,1.3824928,-0.6512467,7.5870495,-4.708832,47.894875,0.007797323,-0.014516256,0.31516004,0.1600398,-0.4435207,-0.112599276,29.214224,-78.95206,138.29724,0.14376092,0.1727007,0.0018304099,0.62789357,-0.047074232,0.16065755,-0.6518432,2.126742,-20.16326,-0.22423947,0.13004431,0.021739144,1.3504297,1.5965514,0.16195878,13.017732,-66.94807,-20.16326,-1.4522504,-2.718167,123.875694,-0.73986226,-1.0,1.0,1.0,0.9989509,0.9438623,-1.0,-1.0,0.0,0.0,-0.6592132,-1.0,1.0,1.0,0.99900395,0.9086038,-1.0,-1.0
0,121,128,128.0,-0.1892596350217969,0.31434083,0.9198473,0.35874298,-0.1383837,0.07768107,0.31033012,0.6385168,0.70426667,-0.3072937,-0.63298863,-0.10766057,0.2534826,3.7487993,6.607591,-0.8294025,0.30797887,-0.976978,1.5467615,0.818722,1.2766916,-1.1506191,4.3390474,0.9685188,6.5919724,0.22817542,0.4687216,-0.63379574,7.6163564,-4.3617454,48.473827,0.007999285,-0.015123824,0.31436044,0.15969014,-0.45971286,-0.11699548,29.27449,-81.061806,139.68768,0.1448518,0.17390129,0.0021242434,0.67725205,-0.09101287,0.17930156,-0.8476231,2.4906213,-19.400787,-0.22163685,0.13212949,0.022006182,1.3414152,1.5651257,0.13111511,12.950679,-67.50664,-19.400787,-1.4540776,-2.7555053,125.502594,-0.6592132,-1.0,1.0,1.0,0.99900395,0.9086038,-1.0,-1.0,0.0,0.0,-0.8329935,-1.0,1.0,1.0,0.99979603,0.8414268,-1.0,-1.0
